!!!!SEGMENT: pl-cz--iii-563--001-005_raszek-waclaw--missa-ex-dis-et-resurrexit.krn
!!!cenid: 17xx:1074
!!!COM: Raszek, Wacław
!!!COM-rismID: pe30020314
!!!CDT: <1848->1848
!!!CNT:
!!!OPR: Missa ex Dis
!!!OTL: Et resurrexit
!!!OMV: 005
!!!PDT:
!!!AGN: Sacred; Mass
!!!YEC: Copyright 2022 Narodowy Instytut Fryderyka Chopina (https://polishscores.org)
!!!YEM: License CC-BY-4.0 (https://creativecommons.org/licenses/by/4.0)
!!!SMS-siglum: PL-CZ
!!!SMS-shelfmark: III-563
!!!SMS-shelfwork: 001-005 M
!!!SMS-variant:
!!!SMS-altvar:
!!!NIFC-rismSourceID: 300001050
!!!NIFC-rismChildID: 300001050
!!!NIFC-islandoraID: pl-cz:39135
!!!URL-pdf-islandora: https://repozytorium.nifc.pl/islandora/object/pl-cz%3A39135/datastream/PDF/view
!!!URL-scan: https://polish.musicsources.pl/pl/lokalizacje/galeria/rekopisy/6951/1 @EN{Scan on Polish Music Sources Website} @PL{Skany w portalu Dziedzictwo Muzyki Polskiej w otwartym dostępie}
!!!IIIF:
!!!ONB-nifc: UWAGA: części Mszy: Kyrie, Gloria, Credo, Et incarnatus, Et resurrexit, Sanctus, Pleni sunt, Benedictus, Agnus Dei, Dona nobis
!!!AIN: 1 alto 1 cor 5 empty 1 organ 1 tenor 2 violn 1 vox
!!!key:
**kern	**dynam	**kern	**dynam	**kern	**dynam	**kern	**dynam	**kern	**text	**kern	**text	**kern	**text	**kern	**text	**kern	**kern	**dynam	**kern	**dynam	**kern
*part12	*	*part11	*	*part10	*	*part9	*	*part8	*	*part7	*	*part6	*	*part5	*	*part4	*part3	*	*part2	*	*part1
*staff12	*	*staff11	*	*staff10	*	*staff9	*	*staff8	*	*staff7	*	*staff6	*	*staff5	*	*staff4	*staff3	*	*staff2	*	*staff1
*Iorgan	*	*Iempty	*	*Ivioln	*	*Ivioln	*	*Iempty	*	*Itenor	*	*Ialto	*	*Ivox	*	*Icor	*Iempty	*	*Iempty	*	*Iempty
*I"Organo.	*	*I"Viola obligata.	*	*I"Violino 2.do	*	*I"Violino Primo	*	*I"Baſso.	*	*I"Tenore.	*	*I"Alto.	*	*I"Canto.	*	*I"Corno Secundo in Dis	*I"Cornu Primo in Dis.	*	*I"Clarinetto Secondo. in: B	*	*I"Clarinetto Primo. in: B
*I'org	*	*I'vla	*	*I'vl II	*	*I'vl I	*	*I'B	*	*I'T	*	*I'A	*	*I'C	*	*I'cor II	*I'cor I	*	*I'cl II	*	*I'cl I
*clefF4	*	*clefC3	*	*clefG2	*	*clefG2	*	*clefF4	*	*clefC4	*	*clefC3	*	*clefC1	*	*clefG2	*clefG2	*	*clefG2	*	*clefG2
*	*	*	*	*	*	*	*	*	*	*	*	*	*	*	*	*ITrd5c9	*ITrd5c9	*	*ITrd1c2	*	*ITrd1c2
*k[b-e-a-]	*	*k[b-e-a-]	*	*k[b-e-a-]	*	*k[b-e-a-]	*	*k[b-e-a-]	*	*k[b-e-a-]	*	*k[b-e-a-]	*	*k[b-e-a-]	*	*k[b-e-a-]	*k[b-e-a-]	*	*k[b-e-a-]	*	*k[b-e-a-]
*E-:	*	*E-:	*	*E-:	*	*E-:	*	*E-:	*	*E-:	*	*E-:	*	*E-:	*	*E-:	*E-:	*	*E-:	*	*E-:
*M4/4	*	*M4/4	*	*M4/4	*	*M4/4	*	*M4/4	*	*M4/4	*	*M4/4	*	*M4/4	*	*M4/4	*M4/4	*	*M4/4	*	*M4/4
*met(c)	*	*met(c)	*	*met(c)	*	*met(c)	*	*met(c)	*	*met(c)	*	*met(c)	*	*met(c)	*	*met(c)	*met(c)	*	*met(c)	*	*met(c)
=1	=1	=1	=1	=1	=1	=1	=1	=1	=1	=1	=1	=1	=1	=1	=1	=1	=1	=1	=1	=1	=1
*2\right	*	*2\right	*	*2\right	*	*2\right	*	*2\right	*	*2\right	*	*2\right	*	*2\right	*	*2\right	*2\right	*	*2\right	*	*
!	!	!	!	!	!	!	!	!	!	!	!	!	!	!	!	!	!LO:TX:t=P:problem=oznaczenie metryczne C z kropką	!	!	!	!
!LO:TX:t=P:problem=oznaczenie metryczne C z kropką	!	!	!	!	!	!	!	!LO:TX:t=P:problem=oznaczenie metryczne C z ogonkiem	!	!	!	!	!	!	!	!	!LO:TX:t=P:f = for:global:problem	!	!LO:TX:t=P:f = forte.:problem	!	!
!LO:TX:t=P:problem=kolejność znaków BB- E- A-	!	!LO:TX:t=P:problem=oznaczenie metryczne C z ogonkiem	!	!LO:TX:t=P:problem=oznaczenie metryczne C z ogonkiem	!	!	!	!LO:TX:t=P:problem=kolejność znaków BB- E- A-	!	!LO:TX:t=P:problem=oznaczenie metryczne C z ogonkiem	!	!LO:TX:t=P:problem=kolejność znaków B- e- a-	!	!LO:TX:t=P:problem=kolejność znaków e- b- a-	!	!LO:TX:t=P:problem=oznaczenie metryczne C z kropką	!LO:TX:a:t=in Dis	!	!LO:TX:t=P:problem=oznaczenie metryczne C z ogonkiem	!	!
!LO:TX:a:B:t=allo	!LO:DY:a	!LO:TX:a:B:t=allo	!	!LO:TX:a:B:t=all&colon;o	!	!LO:TX:a:B:t=all&colon;o	!	!LO:TX:a:B:t=all&colon;o	!	!LO:TX:a:B:t=all&colon;o	!	!LO:TX:a:B:t=all&colon;o	!	!LO:TX:a:B:t=allo	!	!LO:TX:a:B:t=allo	!LO:TX:a:B:t=allo	!LO:DY:a	!LO:TX:a:B:t=allo.	!	!
4E-\	f	4e-\	.	4g 4B-/	.	4ee- 4e- 4G/	.	4r	.	4B-\	Et	4g\	Et	4ee-\	Et	4G/	4e-\	f	4g/	f	1ryy
4E-\	.	4e-\	.	16g/LL	.	16ee-\LL	.	4E-\	Et	2B-\	Re-	2g\	Re-	2ee-\	Re-	2G/	2e-\	.	2g/	.	.
.	.	.	.	16f/	.	16dd\	.	.	.	.	.	.	.	.	.	.	.	.	.	.	.
.	.	.	.	16g/	.	16ee-\	.	.	.	.	.	.	.	.	.	.	.	.	.	.	.
.	.	.	.	16a-/JJ	.	16ff\JJ	.	.	.	.	.	.	.	.	.	.	.	.	.	.	.
4G\	.	4g\	.	4g/	.	4ee-\	.	4G\	re-	.	.	.	.	.	.	.	.	.	.	.	.
!LO:TX:t=P:problem=skreślony dźwięk 4A-	!	!	!	!	!	!	!	!	!LO:MO:mod=-sur-	!	!LO:MO:mod=-sur-	!	!	!	!LO:MO:mod=-sur-	!	!	!	!LO:TX:t=P:problem=4,8,16 middle or right&colon; global	!	!
4B-\	.	4d\	.	4b- 4d/	.	4ff\	.	4B-\	-ſu-	4B-\	-su-	4f\	-ſur-	4dd\	-su-	4B-/	4f\	.	4b-\	.	.
=2	=2	=2	=2	=2	=2	=2	=2	=2	=2	=2	=2	=2	=2	=2	=2	=2	=2	=2	=2	=2	=2
*	*	*	*	*^	*	*^	*	*	*	*	*	*	*	*	*	*	*	*	*	*	*
!	!	!	!	!	!	!	!LO:TX:a:t=P:problem=w źródle to albo 8gg [przednutka]	!	!	!	!	!	!	!	!	!	!	!	!	!	!	!	!
4e-\	.	4e-\	.	4b-/	4g\	.	4gg/	4b-\	.	4e-\	-re-	1B-	-re-	4g\	-re-	4ee-\	-re-	4e-\	4g\	.	4ee-\	.	1ryy
.	.	8qg/	.	.	.	.	8qqbb-/	.	.	.	.	.	.	.	.	.	.	.	.	.	.	.	.
4B-\	.	8f\L	.	4b-/	4f\	.	8aa-\L	4ryy	.	4B-\	.	.	.	8a-\L	.	8ff\L	.	4B-/	4f\	.	8ff\L	.	.
.	.	16e-\L	.	.	.	.	16gg\L	.	.	.	.	.	.	8f\J	.	8dd\J	.	.	.	.	16ee-\L	.	.
.	.	16d\JJ	.	.	.	.	16ff\JJ	.	.	.	.	.	.	.	.	.	.	.	.	.	16dd\JJ	.	.
4e-\	.	4e-\	.	4b-/	4g\	.	4gg/	4b-\	.	4e-\	.	.	.	4g\	.	4ee-\	.	4e-\	4g\	.	4ee-\	.	.
!	!	!	!	!	!	!	!LO:TX:a:t=P:problem=w źródle to albo 8gg [przednutka]	!	!	!	!	!	!	!	!	!	!	!	!	!	!	!	!
.	.	8qg/	.	.	.	.	8qqbb-/	.	.	.	.	.	.	.	.	.	.	.	.	.	.	.	.
4B-\	.	8f\L	.	4b-/	4f\	.	8aa-\L	4ryy	.	4B-\	.	.	.	8a-\L	.	8ff\L	.	4B-/	4f\	.	8ff\L	.	.
.	.	16e-\L	.	.	.	.	16gg\L	.	.	.	.	.	.	8f\J	.	8dd\J	.	.	.	.	16ee-\L	.	.
.	.	16d\JJ	.	.	.	.	16ff\JJ	.	.	.	.	.	.	.	.	.	.	.	.	.	16dd\JJ	.	.
*	*	*	*	*	*	*	*v	*v	*	*	*	*	*	*	*	*	*	*	*	*	*	*	*
=3	=3	=3	=3	=3	=3	=3	=3	=3	=3	=3	=3	=3	=3	=3	=3	=3	=3	=3	=3	=3	=3	=3
!	!	!	!LO:DY:a	!	!	!	!	!	!	!	!	!	!	!	!	!	!	!	!	!	!	!
4E-\	.	4e-\	p	4b-/	4g\	.	8gg|>\L	p	4E-\	-xit	4B-\	-xit	4g\	-xit	4ee-\	-xit	4e-\	4g\	.	4ee-\	.	1ryy
.	.	.	.	.	.	.	8ee-|>\	.	.	.	.	.	.	.	.	.	.	.	.	.	.	.
!	!LO:DY:a	!	!	!	!	!	!	!	!	!	!	!	!	!	!	!	!	!	!	!	!	!
4r	p	4r	.	4r	4ryy	.	(8gg\	.	4r	.	4r	.	4r	.	4r	.	4r	4r	.	4r	.	.
.	.	.	.	.	.	.	8ee-\J)	.	.	.	.	.	.	.	.	.	.	.	.	.	.	.
!	!	!	!	!	!	!LO:DY:a	!	!	!	!	!	!	!	!	!	!	!	!	!	!	!	!
4A-\	.	4A-/	.	4e-/	2reyy	p	8r	.	2r	.	2r	.	2r	.	2r	.	2r	2r	.	2r	.	.
.	.	.	.	.	.	.	8cc|>\L	.	.	.	.	.	.	.	.	.	.	.	.	.	.	.
4r	.	4r	.	4r	.	.	(8ee-\	.	.	.	.	.	.	.	.	.	.	.	.	.	.	.
.	.	.	.	.	.	.	8cc\J)	.	.	.	.	.	.	.	.	.	.	.	.	.	.	.
*	*	*	*	*v	*v	*	*	*	*	*	*	*	*	*	*	*	*	*	*	*	*	*
=4	=4	=4	=4	=4	=4	=4	=4	=4	=4	=4	=4	=4	=4	=4	=4	=4	=4	=4	=4	=4	=4
!	!	!	!	!	!	!	!	!	!	!	!	!	!	!	!	!	!LO:TX:a:t=1	!	!LO:TX:a:t=1.	!	!
4B-\	.	4B-/	.	8r	.	8r	.	1r	.	1r	.	1r	.	1r	.	1r	1r	.	1r	.	1ryy
.	.	.	.	(8g/L	.	8b-|>/L	.	.	.	.	.	.	.	.	.	.	.	.	.	.	.
4r	.	4r	.	8a-/)	.	(8cc/	.	.	.	.	.	.	.	.	.	.	.	.	.	.	.
.	.	.	.	8e-|>/J	.	8g/J)	.	.	.	.	.	.	.	.	.	.	.	.	.	.	.
4BB-/	.	4B-/	.	8r	.	8r	.	.	.	.	.	.	.	.	.	.	.	.	.	.	.
.	.	.	.	8f|>/L	.	8a-|>/L	.	.	.	.	.	.	.	.	.	.	.	.	.	.	.
4r	.	4r	.	(8g/	.	(8b-/	.	.	.	.	.	.	.	.	.	.	.	.	.	.	.
.	.	.	.	8d/J)	.	8f/J)	.	.	.	.	.	.	.	.	.	.	.	.	.	.	.
=5	=5	=5	=5	=5	=5	=5	=5	=5	=5	=5	=5	=5	=5	=5	=5	=5	=5	=5	=5	=5	=5
!	!LO:DY:a	!	!LO:DY:a	!	!LO:DY:a	!	!	!	!	!	!	!	!	!	!	!	!	!	!	!	!
4E-\	f	4e-\	f	4e-/	f	4ee- 4e-/	f	4r	.	4r	.	4r	.	4r	.	4G/	4e-\	.	4g/	.	1ryy
4E-\	.	4e-\	.	16g/LL	.	16ee-\LL	.	4E-\	ter-	4B-\	ter-	4g\	ter-	4ee-\	ter-	2G/	2e-\	.	2g/	.	.
.	.	.	.	16f/	.	16dd\	.	.	.	.	.	.	.	.	.	.	.	.	.	.	.
.	.	.	.	16g/	.	16ee-\	.	.	.	.	.	.	.	.	.	.	.	.	.	.	.
.	.	.	.	16a-/JJ	.	16ff\JJ	.	.	.	.	.	.	.	.	.	.	.	.	.	.	.
4G\	.	4g\	.	4g/	.	4ee-\	.	4G\	-ti-	4B-\	-ti-	4g\	-ti-	4ee-\	-ti-	.	.	.	.	.	.
4B-\	.	4b-\	.	4dd\	.	4ff\	.	4B-\	-a	4B-\	-a	4f\	-a	4dd\	-a	4B-/	4f\	.	4dd\	.	.
=6	=6	=6	=6	=6	=6	=6	=6	=6	=6	=6	=6	=6	=6	=6	=6	=6	=6	=6	=6	=6	=6
*	*	*	*	*	*	*^	*	*	*	*	*	*	*	*	*	*	*	*	*	*	*
4e-\	.	4e-\	.	4ee-\	.	4gg/	4b-\	.	4e-\	di-	1B-	di-	4g\	di-	4ee-\	di-	4e-\	4g\	.	4ee-\	.	1ryy
!	!	!	!	!	!	!LO:TX:a:t=P:problem=w źródle to albo 8gg [przednutka]	!	!	!	!	!	!	!	!	!	!	!	!	!	!	!	!
.	.	8qg/	.	8qqgg/	.	8qqbb-/	.	.	.	.	.	.	.	.	.	.	.	.	.	.	.	.
4B-\	.	8f\L	.	8ff\L	.	8aa-\L	4ryy	.	4B-\	.	.	.	8a-\L	.	8ff\L	.	4B-/	8a-\L	.	8ff\L	.	.
.	.	16e-\L	.	16ee-\L	.	16gg\L	.	.	.	.	.	.	8f\J	.	8dd\J	.	.	8f\J	.	8dd\J	.	.
.	.	16d\JJ	.	16dd\JJ	.	16ff\JJ	.	.	.	.	.	.	.	.	.	.	.	.	.	.	.	.
4e-\	.	4e-\	.	4ee-\	.	4gg 4b-\	2ryy	.	4e-\	.	.	.	4g\	.	4ee-\	.	4e-\	4g\	.	4ee-\	.	.
!	!	!	!	!	!	!LO:TX:a:t=P:problem=w źródle to albo 8gg [przednutka]	!	!	!	!	!	!	!	!	!	!	!	!	!	!	!	!
.	.	8qg/	.	8qqgg/	.	8qqbb-/	.	.	.	.	.	.	.	.	.	.	.	.	.	.	.	.
4B-\	.	8f\L	.	8ff\L	.	8aa-\L	.	.	4B-\	.	.	.	8a-\L	.	8ff\L	.	4B-/	8a-\L	.	8ff\L	.	.
.	.	16e-\L	.	16ee-\L	.	16gg\L	.	.	.	.	.	.	8f\J	.	8dd\J	.	.	8f\J	.	8dd\J	.	.
.	.	16d\JJ	.	16dd\JJ	.	16ff\JJ	.	.	.	.	.	.	.	.	.	.	.	.	.	.	.	.
*	*	*	*	*	*	*v	*v	*	*	*	*	*	*	*	*	*	*	*	*	*	*	*
=7	=7	=7	=7	=7	=7	=7	=7	=7	=7	=7	=7	=7	=7	=7	=7	=7	=7	=7	=7	=7	=7
*tremolo	*	*tremolo	*	*	*	*	*	*	*	*	*	*	*	*	*	*	*	*	*	*	*
!	!	!	!	!LO:TX:t=P:problem=mixed beam	!	!	!	!	!	!	!	!	!	!LO:TX:t=P:problem=znak oddechu na 1 linii	!	!	!	!	!	!	!
8E-\L	.	8e-\L	.	8ee-\L	.	8gg\L	.	4E-\	-e	4B-\	-e	4g\	-e	4ee-,\	-e	4e-\	4g\	.	4ee-\	.	1ryy
8E-\	.	8e-\	.	8g/	.	8ee-\	.	.	.	.	.	.	.	.	.	.	.	.	.	.	.
8E-\	.	8e-\	.	8g/	.	8ee-\	.	4E-\	Se-	4B-\	Se-	4g\	Se-	4ee-\	Se-	4r	4r	.	2b-\	.	.
8E-\J	.	8e-\J	.	8g/J	.	8ee-\J	.	.	.	.	.	.	.	.	.	.	.	.	.	.	.
*	*	*	*	*tremolo	*	*	*	*	*	*	*	*	*	*	*	*	*	*	*	*	*
8G\L	.	8g\L	.	8b-/L	.	(8dd\L	.	4G\	-cun-	4B-\	-cun-	4g\	-cun-	4ee-\	-cun-	4e-\	4e-\	.	.	.	.
8G\	.	8g\	.	8b-/	.	8ee-\)	.	.	.	.	.	.	.	.	.	.	.	.	.	.	.
8G\	.	8g\	.	8b-/	.	8ee-\	.	8G\	-dum	8B-\	-dum	8g\	-dum	8ee-\	-dum	4r	4r	.	4b-\	.	.
8G\J	.	8g\J	.	8b-/J	.	8ee-\J	.	8G\	Scrip-	8B-\	Scrip-	8g\	scrip-	8ee-\	(Scrip)-	.	.	.	.	.	.
*Xtremolo	*	*	*	*Xtremolo	*	*	*	*	*	*	*	*	*	*	*	*	*	*	*	*	*
=8	=8	=8	=8	=8	=8	=8	=8	=8	=8	=8	=8	=8	=8	=8	=8	=8	=8	=8	=8	=8	=8
8An\L	.	8An/L	.	16f/LL	.	(16ff\LL	.	4An\	-tu-	4c\	-tu-	4f\	-tu-	4ee-\	-tu-	1f	1f	.	1cc	.	1ryy
.	.	.	.	16cc/	.	16ee-\)	.	.	.	.	.	.	.	.	.	.	.	.	.	.	.
8A\	.	8A/	.	16g/	.	16dd|>\	.	.	.	.	.	.	.	.	.	.	.	.	.	.	.
.	.	.	.	16cc/JJ	.	16ee-|>\JJ	.	.	.	.	.	.	.	.	.	.	.	.	.	.	.
8c\	.	8A/	.	16f/LL	.	(16ff\LL	.	4A\	-ras	4c\	-raas	4f\	-ras	4ee-\	-ras	.	.	.	.	.	.
.	.	.	.	16cc/	.	16ee-\)	.	.	.	.	.	.	.	.	.	.	.	.	.	.	.
8c\J	.	8A/J	.	16f/	.	16dd|>\	.	.	.	.	.	.	.	.	.	.	.	.	.	.	.
.	.	.	.	16cc/JJ	.	16ee-|>\JJ	.	.	.	.	.	.	.	.	.	.	.	.	.	.	.
*	*	*	*	*tremolo	*	*	*	*	*	*	*	*	*	*	*	*	*	*	*	*	*
8A\L	.	8A/L	.	16f/LL	.	16ccc\LL	.	4A\	et	4c\	et	4f\	et	4ee-\	et	.	.	.	.	.	.
.	.	.	.	16cc/	.	16bb-\	.	.	.	.	.	.	.	.	.	.	.	.	.	.	.
8A\	.	8A/	.	16f/	.	16aan\	.	.	.	.	.	.	.	.	.	.	.	.	.	.	.
.	.	.	.	16cc/	.	16gg\JJ	.	.	.	.	.	.	.	.	.	.	.	.	.	.	.
8F\	.	8A/	.	16f/	.	16ff\LL	.	4A\	aſ-	4c\	as-	4f\	as-	4ee-\	as-	.	.	.	.	.	.
.	.	.	.	16cc/	.	16ee-\	.	.	.	.	.	.	.	.	.	.	.	.	.	.	.
8F\J	.	8A/J	.	16f/	.	16dd\	.	.	.	.	.	.	.	.	.	.	.	.	.	.	.
.	.	.	.	16cc/JJ	.	16ee-\JJ	.	.	.	.	.	.	.	.	.	.	.	.	.	.	.
*	*	*Xtremolo	*	*	*	*	*	*	*	*	*	*	*	*	*	*	*	*	*	*	*
=9	=9	=9	=9	=9	=9	=9	=9	=9	=9	=9	=9	=9	=9	=9	=9	=9	=9	=9	=9	=9	=9
4B-\	.	8B-\L	.	16b-/LL	.	16dd\LL	.	4B-\	-cen-	4B-\	-cen-	4f\	-cen-	4dd\	-cen-	4B-/	4f\	.	4b-\	.	1ryy
.	.	.	.	16b-/	.	16ff\	.	.	.	.	.	.	.	.	.	.	.	.	.	.	.
.	.	8B-\	.	16b-/	.	16dd\	.	.	.	.	.	.	.	.	.	.	.	.	.	.	.
.	.	.	.	16b-/	.	16ff\JJ	.	.	.	.	.	.	.	.	.	.	.	.	.	.	.
4d\	.	8d\	.	16b-/	.	16b-\LL	.	8d\	-dit	8B-\	-dit	8f\	-dit	8b-\	-dit	4r	4r	.	4b-\	.	.
.	.	.	.	16b-/	.	16ff\	.	.	.	.	.	.	.	.	.	.	.	.	.	.	.
.	.	8d\J	.	16b-/	.	16b-\	.	8d\	in	8B-\	in	8f\	in	8b-\	in	.	.	.	.	.	.
.	.	.	.	16b-/JJ	.	16ff\JJ	.	.	.	.	.	.	.	.	.	.	.	.	.	.	.
4c\	.	8c\L	.	16an/LL	.	16cc\LL	.	4c\	Cae-	4An\	Cae-	4f\	Cae-	4cc\	Cae-	2r	2r	.	4a\	.	.
.	.	.	.	16a/	.	16ff\	.	.	.	.	.	.	.	.	.	.	.	.	.	.	.
.	.	8c\	.	16a/	.	16cc\	.	.	.	.	.	.	.	.	.	.	.	.	.	.	.
.	.	.	.	16a/JJ	.	16ff\JJ	.	.	.	.	.	.	.	.	.	.	.	.	.	.	.
4B-\	.	8B-\	.	16b-/LL	.	16dd\LL	.	4B-\	-lum	4B-\	-lum	4f\	-lum	4dd\	-lum	.	.	.	4b-\	.	.
.	.	.	.	16b-/	.	16ff\	.	.	.	.	.	.	.	.	.	.	.	.	.	.	.
.	.	8B-\J	.	16b-/	.	16dd\	.	.	.	.	.	.	.	.	.	.	.	.	.	.	.
.	.	.	.	16b-/JJ	.	16ff\JJ	.	.	.	.	.	.	.	.	.	.	.	.	.	.	.
=10	=10	=10	=10	=10	=10	=10	=10	=10	=10	=10	=10	=10	=10	=10	=10	=10	=10	=10	=10	=10	=10
*	*	*tremolo	*	*	*	*	*	*	*	*	*	*	*	*	*	*	*	*	*	*	*
8An\L	.	8An/L	.	16f/LL	.	16ff\LL	.	4An\	Se-	4c\	Se-	4f\	Se-	4ee-\	Se-	1f	1f	.	1cc	.	1ryy
.	.	.	.	16cc/	.	16ee-\	.	.	.	.	.	.	.	.	.	.	.	.	.	.	.
8A\	.	8A/	.	16f/	.	16dd\	.	.	.	.	.	.	.	.	.	.	.	.	.	.	.
.	.	.	.	16cc/	.	16ee-\JJ	.	.	.	.	.	.	.	.	.	.	.	.	.	.	.
8c\	.	8A/	.	16f/	.	16ff\LL	.	8A\	-det	8c\	-det	8f\	-det	8ee-\	-det	.	.	.	.	.	.
.	.	.	.	16cc/	.	16ee-\	.	.	.	.	.	.	.	.	.	.	.	.	.	.	.
8c\J	.	8A/J	.	16f/	.	16dd\	.	8A\	ad	8c\	ad	8f\	ad	8ee-\	ad	.	.	.	.	.	.
.	.	.	.	16cc/JJ	.	16ee-\JJ	.	.	.	.	.	.	.	.	.	.	.	.	.	.	.
8A\L	.	8A/L	.	16f/LL	.	16ccc\LL	.	4A\	dex-	4c\	dex-	4f\	dex-	4ee-\	dex-	.	.	.	.	.	.
.	.	.	.	16cc/	.	16bb-\	.	.	.	.	.	.	.	.	.	.	.	.	.	.	.
8A\	.	8A/	.	16f/	.	16aan\	.	.	.	.	.	.	.	.	.	.	.	.	.	.	.
.	.	.	.	16cc/	.	16gg\JJ	.	.	.	.	.	.	.	.	.	.	.	.	.	.	.
8F\	.	8A/	.	16f/	.	16ff\LL	.	8A\	-te-	8c\	-te-	8f\	-te-	8ee-\	-te-	.	.	.	.	.	.
.	.	.	.	16cc/	.	16ee-\	.	.	.	.	.	.	.	.	.	.	.	.	.	.	.
!	!	!	!	!	!	!	!	!	!	!	!	!	!	!	!LO:MO:mod=-ram	!	!	!	!	!	!
8F\J	.	8A/J	.	16f/	.	16dd\	.	8A\	-ram	8c\	-ram	8f\	-ram	8ee-\	-ra	.	.	.	.	.	.
.	.	.	.	16cc/JJ	.	16cc\JJ	.	.	.	.	.	.	.	.	.	.	.	.	.	.	.
*	*	*Xtremolo	*	*	*	*	*	*	*	*	*	*	*	*	*	*	*	*	*	*	*
=11	=11	=11	=11	=11	=11	=11	=11	=11	=11	=11	=11	=11	=11	=11	=11	=11	=11	=11	=11	=11	=11
4B-\	.	4B-/	.	16dd\LL	.	8dd\L	.	4B-\	Pa-	4B-\	Pa-	4b-\	Pa-	8dd\L	Pa-	4B-/	4f\	.	4b-\	.	1ryy
.	.	.	.	16dd\	.	.	.	.	.	.	.	.	.	.	.	.	.	.	.	.	.
.	.	.	.	16dd\	.	8ff\	.	.	.	.	.	.	.	8ff\J	.	.	.	.	.	.	.
.	.	.	.	16dd\	.	.	.	.	.	.	.	.	.	.	.	.	.	.	.	.	.
8r	.	8r	.	16dd\	.	8gg\	.	8B-\	-tris	8d\	-tris	8b-\	-tris	8gg\	-tris	4r	4r	.	8r	.	.
.	.	.	.	16dd\	.	.	.	.	.	.	.	.	.	.	.	.	.	.	.	.	.
8B-\	.	8b-\	.	16dd\	.	8dd\J	.	8B-\	et	8d\	et	8b-\	et	8dd\	et	.	.	.	8dd\	.	.
.	.	.	.	16dd\JJ	.	.	.	.	.	.	.	.	.	.	.	.	.	.	.	.	.
8c\L	.	8cc\L	.	16ee-\LL	.	8ee-\L	.	8c\L	i-	4e-\	i-	4g\	i-	8ee-\L	i-	2r	2r	.	4ee-\	.	.
.	.	.	.	16ee-\	.	.	.	.	.	.	.	.	.	.	.	.	.	.	.	.	.
8An\	.	8an\	.	16ee-\	.	8cc\J	.	8An\J	.	.	.	.	.	8cc\J	.	.	.	.	.	.	.
.	.	.	.	16ee-\JJ	.	.	.	.	.	.	.	.	.	.	.	.	.	.	.	.	.
8F\	.	8f\	.	16cc\LL	.	4ff\	.	8F\L	-te-	4c\	-te-	4an\	-te-	4ff\	-te-	.	.	.	4cc\	.	.
.	.	.	.	16cc\	.	.	.	.	.	.	.	.	.	.	.	.	.	.	.	.	.
8A\J	.	8a\J	.	16cc\	.	.	.	8A\J	.	.	.	.	.	.	.	.	.	.	.	.	.
.	.	.	.	16cc\JJ	.	.	.	.	.	.	.	.	.	.	.	.	.	.	.	.	.
=12	=12	=12	=12	=12	=12	=12	=12	=12	=12	=12	=12	=12	=12	=12	=12	=12	=12	=12	=12	=12	=12
8B-\L	.	8b-\L	.	16dd\LL	.	8dd\L	.	8B-\L	-rum	4d\	-rum	4f\	-rum	8dd\L	-rum	1r	1r	.	4dd\	.	1ryy
.	.	.	.	16dd\	.	.	.	.	.	.	.	.	.	.	.	.	.	.	.	.	.
8G\	.	8g\	.	16dd\	.	8b-\J	.	8G\J	.	.	.	.	.	8b-\J	.	.	.	.	.	.	.
.	.	.	.	16dd\JJ	.	.	.	.	.	.	.	.	.	.	.	.	.	.	.	.	.
8E-\	.	8e-\	.	16b-\LL	.	4ee-\	.	8E-\L	ven-	4B-\	ven-	4g\	ven-	4ee-\	ven-	.	.	.	4b-\	.	.
.	.	.	.	16b-\	.	.	.	.	.	.	.	.	.	.	.	.	.	.	.	.	.
8G\J	.	8g\J	.	16b-\	.	.	.	8G\J	.	.	.	.	.	.	.	.	.	.	.	.	.
.	.	.	.	16b-\JJ	.	.	.	.	.	.	.	.	.	.	.	.	.	.	.	.	.
!LO:SIC:v:o=8A-\L	!	!	!	!	!	!	!	!	!	!	!	!	!	!	!	!	!	!	!	!	!
8An	.	8an\L	.	16cc\LL	.	8cc\L	.	8An\L	-tu-	4c\	-tu-	4e-\	-tu-	8cc\L	-tu-	.	.	.	4cc\	.	.
.	.	.	.	16cc\	.	.	.	.	.	.	.	.	.	.	.	.	.	.	.	.	.
8F\	.	8f\	.	16cc\	.	8an\J	.	8F\J	.	.	.	.	.	8an\J	.	.	.	.	.	.	.
.	.	.	.	16cc\JJ	.	.	.	.	.	.	.	.	.	.	.	.	.	.	.	.	.
8D\	.	8d\	.	16an/LL	.	4dd\	.	8D\L	-rus	4An\	-rus	4f\	-rus	4dd\	-rus	.	.	.	4a/	.	.
.	.	.	.	16a/	.	.	.	.	.	.	.	.	.	.	.	.	.	.	.	.	.
8F\J	.	8f\J	.	16a/	.	.	.	8F\J	.	.	.	.	.	.	.	.	.	.	.	.	.
.	.	.	.	16a/JJ	.	.	.	.	.	.	.	.	.	.	.	.	.	.	.	.	.
=13	=13	=13	=13	=13	=13	=13	=13	=13	=13	=13	=13	=13	=13	=13	=13	=13	=13	=13	=13	=13	=13
8G\L	.	8g\L	.	16b-/LL	.	8b-/L	.	8G\L	est	4B-\	e(st)	4d\	e(st)	8b-\L	est	1r	1r	.	4b-/	.	1ryy
.	.	.	.	16b-/	.	.	.	.	.	.	.	.	.	.	.	.	.	.	.	.	.
8E-\	.	8e-\	.	16b-/	.	8g/J	.	8E-\J	.	.	.	.	.	8g\J	.	.	.	.	.	.	.
.	.	.	.	16b-/JJ	.	.	.	.	.	.	.	.	.	.	.	.	.	.	.	.	.
8C\	.	8c\	.	16g/LL	.	4cc\	.	8C\L	cum	4G/	cum	4e-\	cum	4cc\	cum	.	.	.	4g/	.	.
.	.	.	.	16g/	.	.	.	.	.	.	.	.	.	.	.	.	.	.	.	.	.
8E-\J	.	8e-\J	.	16g/	.	.	.	8E-\J	.	.	.	.	.	.	.	.	.	.	.	.	.
.	.	.	.	16g/JJ	.	.	.	.	.	.	.	.	.	.	.	.	.	.	.	.	.
!	!	!	!	!	!	!LO:SIC:v:o=8a-/L	!	!	!	!	!	!	!	!	!	!	!	!	!LO:SIC:v:o=4a-/	!	!
8F\L	.	8f\L	.	16an/LL	.	8an	.	8F\	glo-	8An/	glo-	8c\	glo-	8an\	glo-	.	.	.	4an	.	.
.	.	.	.	16a/	.	.	.	.	.	.	.	.	.	.	.	.	.	.	.	.	.
8D\	.	8d\	.	16a/	.	8f/J	.	8D/	-ri-	8A/	-ri-	8c\	-ri-	8f/	-ri-	.	.	.	.	.	.
.	.	.	.	16a/JJ	.	.	.	.	.	.	.	.	.	.	.	.	.	.	.	.	.
8BB-\	.	8B-\	.	16f/LL	.	4b-/	.	8BB-/L	-a	4F/	-a	4d\	-a	4b-\	-a	.	.	.	4f/	.	.
.	.	.	.	16f/	.	.	.	.	.	.	.	.	.	.	.	.	.	.	.	.	.
8D\J	.	8d\J	.	16f/	.	.	.	8D/J	.	.	.	.	.	.	.	.	.	.	.	.	.
.	.	.	.	16f/JJ	.	.	.	.	.	.	.	.	.	.	.	.	.	.	.	.	.
=14	=14	=14	=14	=14	=14	=14	=14	=14	=14	=14	=14	=14	=14	=14	=14	=14	=14	=14	=14	=14	=14
8c\L	.	8c/L	.	16f/LL	.	16ee-/LL	.	4c\	Ju-	4An\	Ju-	4f\	Ju-	4ee-\	ju-	1f	1f	.	1f	.	1ryy
.	.	.	.	16f/	.	16f/	.	.	.	.	.	.	.	.	.	.	.	.	.	.	.
8c\	.	8c/	.	16f/	.	16ee-/	.	.	.	.	.	.	.	.	.	.	.	.	.	.	.
.	.	.	.	16f/	.	16f/JJ	.	.	.	.	.	.	.	.	.	.	.	.	.	.	.
8B-\	.	8B-/	.	16f/	.	16dd/LL	.	4B-\	-di-	4B-\	-di-	4f\	-di-	4dd\	-di-	.	.	.	.	.	.
.	.	.	.	16f/	.	16f/	.	.	.	.	.	.	.	.	.	.	.	.	.	.	.
8B-\J	.	8B-/J	.	16f/	.	16dd/	.	.	.	.	.	.	.	.	.	.	.	.	.	.	.
.	.	.	.	16f/JJ	.	16f/JJ	.	.	.	.	.	.	.	.	.	.	.	.	.	.	.
8An\L	.	8An/L	.	16f/LL	.	16cc/LL	.	(4An\	-ca-	4c\	-ca-	2f\	-ca-	(4cc\	-ca-	.	.	.	.	.	.
.	.	.	.	16f/	.	16f/	.	.	.	.	.	.	.	.	.	.	.	.	.	.	.
8A\	.	8A/	.	16f/	.	16cc/	.	.	.	.	.	.	.	.	.	.	.	.	.	.	.
.	.	.	.	16f/	.	16f/JJ	.	.	.	.	.	.	.	.	.	.	.	.	.	.	.
8B-\	.	8B-/	.	16f/	.	16dd/LL	.	4B-\)	.	4B-\	.	.	.	4dd\)	.	.	.	.	.	.	.
.	.	.	.	16f/	.	16f/	.	.	.	.	.	.	.	.	.	.	.	.	.	.	.
8B-\J	.	8B-/J	.	16f/	.	16dd/	.	.	.	.	.	.	.	.	.	.	.	.	.	.	.
.	.	.	.	16f/JJ	.	16f/JJ	.	.	.	.	.	.	.	.	.	.	.	.	.	.	.
*	*	*	*	*Xtremolo	*	*	*	*	*	*	*	*	*	*	*	*	*	*	*	*	*
=15	=15	=15	=15	=15	=15	=15	=15	=15	=15	=15	=15	=15	=15	=15	=15	=15	=15	=15	=15	=15	=15
!LO:SIC:v:o=4A-\	!	!LO:SIC:v:o=4A-/	!	!	!	!	!	!	!	!	!	!	!	!	!	!	!	!	!	!	!
4An	.	4An	.	4f/	.	16cc\LL	.	4An\	-re	4c\	-re	4f\	-re	4cc\	-re	4f\	4f\	.	4f/	.	1ryy
.	.	.	.	.	.	16ff\	.	.	.	.	.	.	.	.	.	.	.	.	.	.	.
.	.	.	.	.	.	16een\	.	.	.	.	.	.	.	.	.	.	.	.	.	.	.
.	.	.	.	.	.	16ff\JJ	.	.	.	.	.	.	.	.	.	.	.	.	.	.	.
4r	.	4r	.	4r	.	16gg\LL	.	4r	.	4r	.	4r	.	4r	.	4r	4r	.	4r	.	.
.	.	.	.	.	.	16ff\	.	.	.	.	.	.	.	.	.	.	.	.	.	.	.
.	.	.	.	.	.	16ee\	.	.	.	.	.	.	.	.	.	.	.	.	.	.	.
.	.	.	.	.	.	16ff\JJ	.	.	.	.	.	.	.	.	.	.	.	.	.	.	.
2r	.	2r	.	2r	.	16aan\LL	.	2r	.	2r	.	2r	.	2r	.	2r	2r	.	2r	.	.
.	.	.	.	.	.	16ff\	.	.	.	.	.	.	.	.	.	.	.	.	.	.	.
.	.	.	.	.	.	16ee\	.	.	.	.	.	.	.	.	.	.	.	.	.	.	.
.	.	.	.	.	.	16ff\JJ	.	.	.	.	.	.	.	.	.	.	.	.	.	.	.
.	.	.	.	.	.	16gg\LL	.	.	.	.	.	.	.	.	.	.	.	.	.	.	.
.	.	.	.	.	.	16ff\	.	.	.	.	.	.	.	.	.	.	.	.	.	.	.
.	.	.	.	.	.	16ee\	.	.	.	.	.	.	.	.	.	.	.	.	.	.	.
.	.	.	.	.	.	16ff\JJ	.	.	.	.	.	.	.	.	.	.	.	.	.	.	.
=16	=16	=16	=16	=16	=16	=16	=16	=16	=16	=16	=16	=16	=16	=16	=16	=16	=16	=16	=16	=16	=16
*	*	*	*	*tremolo	*	*	*	*	*	*	*	*	*	*	*	*	*	*	*	*	*
4c\	.	8c/L	.	16f/LL	.	16ee-X/LL	.	4c\	vi-	4An\	vi-	4f\	Vi-	4ee-\	vi-	1f	1f	.	1f	.	1ryy
.	.	.	.	16f/	.	16f/	.	.	.	.	.	.	.	.	.	.	.	.	.	.	.
.	.	8c/	.	16f/	.	16ee-/	.	.	.	.	.	.	.	.	.	.	.	.	.	.	.
.	.	.	.	16f/	.	16f/JJ	.	.	.	.	.	.	.	.	.	.	.	.	.	.	.
4B-\	.	8B-/	.	16f/	.	16dd/LL	.	8B-\	-vos	8B-\	-vos	8f\	-vos	8dd\	-vos	.	.	.	.	.	.
.	.	.	.	16f/	.	16f/	.	.	.	.	.	.	.	.	.	.	.	.	.	.	.
.	.	8B-/J	.	16f/	.	16dd/	.	8B-\	et	8B-\	et	8f\	et	8dd\	et	.	.	.	.	.	.
.	.	.	.	16f/JJ	.	16f/JJ	.	.	.	.	.	.	.	.	.	.	.	.	.	.	.
!LO:SIC:v:o=4A-\	!	!	!	!	!	!	!	!	!	!	!	!	!	!	!	!	!	!	!	!	!
4An	.	8An/L	.	16f/LL	.	16cc/LL	.	4An\	mor-	4c\	mor-	4f\	mor-	4cc\	mor-	.	.	.	.	.	.
.	.	.	.	16f/	.	16f/	.	.	.	.	.	.	.	.	.	.	.	.	.	.	.
.	.	8A/	.	16f/	.	16cc/	.	.	.	.	.	.	.	.	.	.	.	.	.	.	.
.	.	.	.	16f/	.	16f/JJ	.	.	.	.	.	.	.	.	.	.	.	.	.	.	.
4B-\	.	8B-/	.	16f/	.	16dd/LL	.	4B-\	-tu-	4B-\	-tu-	4f\	-tu-	4dd\	-tu-	.	.	.	.	.	.
.	.	.	.	16f/	.	16f/	.	.	.	.	.	.	.	.	.	.	.	.	.	.	.
.	.	8B-/J	.	16f/	.	16dd/	.	.	.	.	.	.	.	.	.	.	.	.	.	.	.
.	.	.	.	16f/JJ	.	16f/JJ	.	.	.	.	.	.	.	.	.	.	.	.	.	.	.
=17	=17	=17	=17	=17	=17	=17	=17	=17	=17	=17	=17	=17	=17	=17	=17	=17	=17	=17	=17	=17	=17
*tremolo	*	*tremolo	*	*	*	*	*	*	*	*	*	*	*	*	*	*	*	*	*	*	*
!	!	!	!	!	!	!LO:TX:t=P:problem=mixed beam	!	!	!	!	!	!	!	!	!	!	!	!	!	!	!
8An\L	.	8c\L	.	16f/LL	.	8ee-\L	.	2An\	-os	2c\	-os	2f\	-os	2ee-\	-os	4f\	4f\	.	1cc	.	1ryy
.	.	.	.	16cc/	.	.	.	.	.	.	.	.	.	.	.	.	.	.	.	.	.
8A\	.	8c\	.	16f/	.	8f/	.	.	.	.	.	.	.	.	.	.	.	.	.	.	.
.	.	.	.	16cc/	.	.	.	.	.	.	.	.	.	.	.	.	.	.	.	.	.
8A\	.	8c\	.	16f/	.	8ee-\	.	.	.	.	.	.	.	.	.	4r	4r	.	.	.	.
.	.	.	.	16cc/	.	.	.	.	.	.	.	.	.	.	.	.	.	.	.	.	.
8A\J	.	8c\J	.	16f/	.	8ee-\J	.	.	.	.	.	.	.	.	.	.	.	.	.	.	.
.	.	.	.	16cc/JJ	.	.	.	.	.	.	.	.	.	.	.	.	.	.	.	.	.
!	!	!LO:SIC:v:o=8A-X/L	!	!	!	!	!	!	!	!	!	!	!	!	!	!	!	!	!	!	!
8A\L	.	8An	.	16f/LL	.	8ee-\L	.	4A\	cu-	4c\	Cu-	4f\	cu-	4ee-\	cu-	2r	2r	.	.	.	.
.	.	.	.	16cc/	.	.	.	.	.	.	.	.	.	.	.	.	.	.	.	.	.
!	!	!LO:SIC:v:o=8A-/	!	!	!	!	!	!	!	!	!	!	!	!	!	!	!	!	!	!	!
8A\	.	8An	.	16f/	.	16dd\L	.	.	.	.	.	.	.	.	.	.	.	.	.	.	.
.	.	.	.	16cc/	.	16ee-\JJ	.	.	.	.	.	.	.	.	.	.	.	.	.	.	.
!	!	!LO:SIC:v:o=8A-/	!	!	!	!	!	!	!	!	!	!	!	!	!	!	!	!	!	!	!
8A\	.	8An	.	16f/	.	8ff\L	.	4A\	-jus	4c\	-jus	4f\	-jus	4ee-\	-jus	.	.	.	.	.	.
.	.	.	.	16cc/	.	.	.	.	.	.	.	.	.	.	.	.	.	.	.	.	.
!	!	!LO:SIC:v:o=8A-/J	!	!	!	!	!	!	!	!	!	!	!	!	!	!	!	!	!	!	!
8A\J	.	8An	.	16f/	.	8ee-\J	.	.	.	.	.	.	.	.	.	.	.	.	.	.	.
.	.	.	.	16cc/JJ	.	.	.	.	.	.	.	.	.	.	.	.	.	.	.	.	.
=18	=18	=18	=18	=18	=18	=18	=18	=18	=18	=18	=18	=18	=18	=18	=18	=18	=18	=18	=18	=18	=18
8B-\L	.	8B-/L	.	16f/LL	.	8dd\L	.	2B-\	re-	2B-\	Re-	2f\	Re-	2dd\	Re-	1B-	1f	.	1b-	.	1ryy
.	.	.	.	16dd/	.	.	.	.	.	.	.	.	.	.	.	.	.	.	.	.	.
8B-\	.	8B-/	.	16f/	.	8bb-\	.	.	.	.	.	.	.	.	.	.	.	.	.	.	.
.	.	.	.	16dd/	.	.	.	.	.	.	.	.	.	.	.	.	.	.	.	.	.
8B-\	.	8B-/	.	16f/	.	8ff\	.	.	.	.	.	.	.	.	.	.	.	.	.	.	.
.	.	.	.	16dd/	.	.	.	.	.	.	.	.	.	.	.	.	.	.	.	.	.
8B-\J	.	8B-/J	.	16f/	.	8ff\J	.	.	.	.	.	.	.	.	.	.	.	.	.	.	.
.	.	.	.	16dd/JJ	.	.	.	.	.	.	.	.	.	.	.	.	.	.	.	.	.
8d\L	.	8d\L	.	16f/LL	.	8ff\L	.	4d\	-gni	4B-\	-gni	4f\	-gni	4ff\	-gni	.	.	.	.	.	.
.	.	.	.	16b-/	.	.	.	.	.	.	.	.	.	.	.	.	.	.	.	.	.
8d\	.	8d\	.	16f/	.	16ee-\L	.	.	.	.	.	.	.	.	.	.	.	.	.	.	.
.	.	.	.	16b-/	.	16ff\JJ	.	.	.	.	.	.	.	.	.	.	.	.	.	.	.
8d\	.	8d\	.	16f/	.	8gg\L	.	4d\	n(on)	4B-\	non	4f\	non	4ff\	n(on)	.	.	.	.	.	.
.	.	.	.	16b-/	.	.	.	.	.	.	.	.	.	.	.	.	.	.	.	.	.
8d\J	.	8d\J	.	16f/	.	8dd\J	.	.	.	.	.	.	.	.	.	.	.	.	.	.	.
.	.	.	.	16b-/JJ	.	.	.	.	.	.	.	.	.	.	.	.	.	.	.	.	.
=19	=19	=19	=19	=19	=19	=19	=19	=19	=19	=19	=19	=19	=19	=19	=19	=19	=19	=19	=19	=19	=19
!	!	!	!	!	!	!LO:TX:t=P:problem=mixed beam	!	!	!	!	!	!	!	!	!	!	!	!	!	!	!
8c\L	.	8c\L	.	16f/LL	.	8ee-\L	.	2c\	e-	(2An\	e-	2f\	e-	2ee-\	e-	1f	1f	.	1cc	.	1ryy
.	.	.	.	16an/	.	.	.	.	.	.	.	.	.	.	.	.	.	.	.	.	.
8c\	.	8c\	.	16f/	.	8f/	.	.	.	.	.	.	.	.	.	.	.	.	.	.	.
.	.	.	.	16an/	.	.	.	.	.	.	.	.	.	.	.	.	.	.	.	.	.
8c\	.	8c\	.	16f/	.	8ee-\	.	.	.	.	.	.	.	.	.	.	.	.	.	.	.
.	.	.	.	16an/	.	.	.	.	.	.	.	.	.	.	.	.	.	.	.	.	.
8c\J	.	8c\J	.	16f/	.	8ee-\J	.	.	.	.	.	.	.	.	.	.	.	.	.	.	.
.	.	.	.	16an/JJ	.	.	.	.	.	.	.	.	.	.	.	.	.	.	.	.	.
8F\L	.	8An/L	.	16f/LL	.	8ee-\L	.	2F\	-rit	2c\)	-rit	2f\	-rit	2ee-\	-rit	.	.	.	.	.	.
.	.	.	.	16cc/	.	.	.	.	.	.	.	.	.	.	.	.	.	.	.	.	.
8F\	.	8A/	.	16f/	.	16dd\L	.	.	.	.	.	.	.	.	.	.	.	.	.	.	.
.	.	.	.	16cc/	.	16ee-\JJ	.	.	.	.	.	.	.	.	.	.	.	.	.	.	.
8F\	.	8A/	.	16f/	.	8ff\L	.	.	.	.	.	.	.	.	.	.	.	.	.	.	.
.	.	.	.	16cc/	.	.	.	.	.	.	.	.	.	.	.	.	.	.	.	.	.
8F\J	.	8A/J	.	16f/	.	8ee-\J	.	.	.	.	.	.	.	.	.	.	.	.	.	.	.
.	.	.	.	16cc/JJ	.	.	.	.	.	.	.	.	.	.	.	.	.	.	.	.	.
*Xtremolo	*	*Xtremolo	*	*	*	*	*	*	*	*	*	*	*	*	*	*	*	*	*	*	*
=20	=20	=20	=20	=20	=20	=20	=20	=20	=20	=20	=20	=20	=20	=20	=20	=20	=20	=20	=20	=20	=20
*	*	*	*	*	*	*	*	*	*	*	*ij	*	*	*	*	*	*	*	*	*	*
8B-\L	.	8B-/L	.	16b-/LL	.	8dd\L	.	8B-\L	non	4d\	e-	2b-\	fi-	4dd\	fi-	4B-/	4f\	.	4b-\	.	1ryy
.	.	.	.	16b-/	.	.	.	.	.	.	.	.	.	.	.	.	.	.	.	.	.
!LO:SIC:v:o=8A-\J	!	!LO:SIC:v:o=8A-/J	!	!	!	!	!	!LO:SIC:v:o=8A-\J	!	!	!	!	!	!	!	!	!	!	!	!	!
8An	.	8An	.	16b-/	.	16cc\L	.	8An	.	.	.	.	.	.	.	.	.	.	.	.	.
.	.	.	.	16b-/	.	16dd\JJ	.	.	.	.	.	.	.	.	.	.	.	.	.	.	.
4G\	.	4G/	.	16b-/	.	8ee-\L	.	4G\	non	4B-\	-rit	.	.	8ee-\L	.	4r	4r	.	4r	.	.
.	.	.	.	16b-/	.	.	.	.	.	.	.	.	.	.	.	.	.	.	.	.	.
.	.	.	.	16b-/	.	8dd\J	.	.	.	.	.	.	.	8dd\J	.	.	.	.	.	.	.
.	.	.	.	16b-/JJ	.	.	.	.	.	.	.	.	.	.	.	.	.	.	.	.	.
*	*	*	*	*	*	*	*	*	*	*	*Xij	*	*	*	*	*	*	*	*	*	*
!LO:SIC:v:o=8A-\L	!	!	!	!	!	!	!	!	!	!	!	!	!	!	!	!	!	!	!	!	!
8An	.	8an\L	.	16an/LL	.	8cc\L	.	8An\L	e-	4c\	fi-	2an\	-nis	4cc\	.	2r	2r	.	2r	.	.
.	.	.	.	16a/	.	.	.	.	.	.	.	.	.	.	.	.	.	.	.	.	.
8G\J	.	8g\J	.	16a/	.	16b-\L	.	8G\J	.	.	.	.	.	.	.	.	.	.	.	.	.
.	.	.	.	16a/	.	16cc\JJ	.	.	.	.	.	.	.	.	.	.	.	.	.	.	.
4F\	.	4f\	.	16a/	.	8dd\L	.	4F\	-rit	4An\	-nis	.	.	8dd\L	.	.	.	.	.	.	.
.	.	.	.	16a/	.	.	.	.	.	.	.	.	.	.	.	.	.	.	.	.	.
.	.	.	.	16a/	.	8cc\J	.	.	.	.	.	.	.	8cc\J	.	.	.	.	.	.	.
.	.	.	.	16a/JJ	.	.	.	.	.	.	.	.	.	.	.	.	.	.	.	.	.
=21	=21	=21	=21	=21	=21	=21	=21	=21	=21	=21	=21	=21	=21	=21	=21	=21	=21	=21	=21	=21	=21
!	!	!	!	!	!	!	!	!	!	!	!	!	!	!	!	!	!LO:TX:a:t=6	!	!LO:TX:a:t=6	!	!
8G\L	.	8g\L	.	16g/LL	.	8b-/L	.	8G\L	non	4B-\	et	4g\	et	4b-\	-nis	00r	00r	.	00r	.	1ryy
.	.	.	.	16g/	.	.	.	.	.	.	.	.	.	.	.	.	.	.	.	.	.
8F\J	.	8f\J	.	16g/	.	16an/L	.	8F\J	.	.	.	.	.	.	.	.	.	.	.	.	.
.	.	.	.	16g/	.	16b-/JJ	.	.	.	.	.	.	.	.	.	.	.	.	.	.	.
*	*	*tremolo	*	*	*	*	*	*	*	*	*	*	*	*	*	*	*	*	*	*	*
*	*	*	*	*	*	*	*	*	*ij	*	*	*	*	*	*	*	*	*	*	*	*
!	!	!	!	!	!	!	!	!	!	!	!	!	!	!LO:TX:t=P:problem=skreślona belka ósemkowa	!	!	!	!	!	!	!
4En\	.	8en\L	.	16g/	.	8cc\L	.	4En\	non	4G/	in	4g\	in	8cc\	et	.	.	.	.	.	.
.	.	.	.	16g/	.	.	.	.	.	.	.	.	.	.	.	.	.	.	.	.	.
.	.	8e\J	.	16g/	.	8b-\J	.	.	.	.	.	.	.	8b-\	in	.	.	.	.	.	.
.	.	.	.	16g/JJ	.	.	.	.	.	.	.	.	.	.	.	.	.	.	.	.	.
*	*	*Xtremolo	*	*	*	*	*	*	*	*	*	*	*	*	*	*	*	*	*	*	*
*	*	*	*	*	*	*	*	*	*Xij	*	*	*	*	*	*	*	*	*	*	*	*
!	!	!	!	!LO:SIC:v:o=16a-/LL	!	!	!	!	!	!	!	!	!	!	!	!	!	!	!	!	!
8F\L	.	8f\L	.	16an	.	16an/LL	.	4F\	e-	4An\	Spi-	4f\	Spi-	4an\	Spi-	.	.	.	.	.	.
!	!	!	!	!LO:SIC:v:o=16a-/	!	!	!	!	!	!	!	!	!	!	!	!	!	!	!	!	!
.	.	.	.	16an	.	16a/	.	.	.	.	.	.	.	.	.	.	.	.	.	.	.
!	!	!	!	!LO:SIC:v:o=16a-/	!	!	!	!	!	!	!	!	!	!	!	!	!	!	!	!	!
8F\	.	8f\	.	16an	.	16a/	.	.	.	.	.	.	.	.	.	.	.	.	.	.	.
!	!	!	!	!LO:SIC:v:o=16a-/	!	!	!	!	!	!	!	!	!	!	!	!	!	!	!	!	!
.	.	.	.	16an	.	16a/JJ	.	.	.	.	.	.	.	.	.	.	.	.	.	.	.
!	!	!	!	!LO:SIC:v:o=16a-/	!	!	!	!	!	!	!	!LO:SIC:v:o=8a-\	!	!	!	!	!	!	!	!	!
8d\	.	8d\	.	16an	.	16ff\LL	.	4d\	-rit	8d\	-ri-	8an	-ri-	8ff\	-ri-	.	.	.	.	.	.
!	!	!	!	!LO:SIC:v:o=16a-/	!	!	!	!	!	!	!	!	!	!	!	!	!	!	!	!	!
.	.	.	.	16an	.	16ff\	.	.	.	.	.	.	.	.	.	.	.	.	.	.	.
!	!	!	!	!LO:SIC:v:o=16a-/	!	!	!	!	!	!	!	!LO:SIC:v:o=8a-\	!	!	!	!	!	!	!	!	!
8d\J	.	8d\J	.	16an	.	16ff\	.	.	.	8d\	-tum	8an	-tum	8ff\	-tum	.	.	.	.	.	.
!	!	!	!	!LO:SIC:v:o=16a-/JJ	!	!	!	!	!	!	!	!	!	!	!	!	!	!	!	!	!
.	.	.	.	16an	.	16ff\JJ	.	.	.	.	.	.	.	.	.	.	.	.	.	.	.
=22	=22	=22	=22	=22	=22	=22	=22	=22	=22	=22	=22	=22	=22	=22	=22	=22	=22	=22	=22	=22	=22
*tremolo	*	*tremolo	*	*	*	*tremolo	*	*	*	*	*	*	*	*	*	*	*	*	*	*	*
8B-\L	.	8B-/L	.	16g/LL	.	16ff\LL	.	2B-\	fi-	2d\	S(an)-	2g\	S(an)-	2ff\	S(an)-	.	.	.	.	.	1ryy
.	.	.	.	16g/	.	16ff\	.	.	.	.	.	.	.	.	.	.	.	.	.	.	.
8B-\	.	8B-/	.	16g/	.	16ff\	.	.	.	.	.	.	.	.	.	.	.	.	.	.	.
.	.	.	.	16g/	.	16ff\	.	.	.	.	.	.	.	.	.	.	.	.	.	.	.
8B-\	.	8B-/	.	16g/	.	16ff\	.	.	.	.	.	.	.	.	.	.	.	.	.	.	.
.	.	.	.	16g/	.	16ff\	.	.	.	.	.	.	.	.	.	.	.	.	.	.	.
8B-\J	.	8B-/J	.	16g/	.	16ff\	.	.	.	.	.	.	.	.	.	.	.	.	.	.	.
.	.	.	.	16g/JJ	.	16ff\JJ	.	.	.	.	.	.	.	.	.	.	.	.	.	.	.
8c\L	.	8c\L	.	16g/LL	.	16een\LL	.	2c\	.	2c\	-ctum	2g\	-ctum	2een\	-ctum	.	.	.	.	.	.
.	.	.	.	16g/	.	16ee\	.	.	.	.	.	.	.	.	.	.	.	.	.	.	.
8c\	.	8c\	.	16g/	.	16ee\	.	.	.	.	.	.	.	.	.	.	.	.	.	.	.
.	.	.	.	16g/	.	16ee\	.	.	.	.	.	.	.	.	.	.	.	.	.	.	.
8c\	.	8c\	.	16g/	.	16ee\	.	.	.	.	.	.	.	.	.	.	.	.	.	.	.
.	.	.	.	16g/	.	16ee\	.	.	.	.	.	.	.	.	.	.	.	.	.	.	.
8c\J	.	8c\J	.	16g/	.	16ee\	.	.	.	.	.	.	.	.	.	.	.	.	.	.	.
.	.	.	.	16g/JJ	.	16ee\JJ	.	.	.	.	.	.	.	.	.	.	.	.	.	.	.
*Xtremolo	*	*Xtremolo	*	*	*	*	*	*	*	*	*	*	*	*	*	*	*	*	*	*	*
=23	=23	=23	=23	=23	=23	=23	=23	=23	=23	=23	=23	=23	=23	=23	=23	=23	=23	=23	=23	=23	=23
*clefC4	*	*	*	*	*	*	*	*	*	*	*	*	*	*	*	*	*	*	*	*	*
8F\L	.	8F/L	.	8an|>\L	.	16ff\LL	.	4F\	-nis	8F\L	Do-	2f\	Do-	4ff\	Do-	.	.	.	.	.	1ryy
.	.	.	.	.	.	16ff\	.	.	.	.	.	.	.	.	.	.	.	.	.	.	.
8G\	.	8G/	.	8b-|>\	.	16ff\	.	.	.	8G\	.	.	.	.	.	.	.	.	.	.	.
.	.	.	.	.	.	16ff\	.	.	.	.	.	.	.	.	.	.	.	.	.	.	.
!	!	!LO:SIC:v:o=8A-/	!	!	!	!	!	!	!	!	!	!	!	!	!	!	!	!	!	!	!
8An\	.	8An	.	8cc|>\	.	16ff\	.	4r	.	8An\	.	.	.	8cc\L	-mi-	.	.	.	.	.	.
.	.	.	.	.	.	16ff\	.	.	.	.	.	.	.	.	.	.	.	.	.	.	.
8B-\J	.	8B-/J	.	8dd|>\J	.	16ff\	.	.	.	8B-\J	.	.	.	8dd\J	.	.	.	.	.	.	.
.	.	.	.	.	.	16ff\JJ	.	.	.	.	.	.	.	.	.	.	.	.	.	.	.
8c\L	.	8c\L	.	8ee-|>\L	.	16ff\LL	.	2r	.	8c\L	-mi-	4f\	-mi-	8ee-X\L	-num	.	.	.	.	.	.
.	.	.	.	.	.	16ff\	.	.	.	.	.	.	.	.	.	.	.	.	.	.	.
8e-\	.	8e-\	.	8cc|>\	.	16ff\	.	.	.	8e-\J	.	.	.	8cc\	.	.	.	.	.	.	.
.	.	.	.	.	.	16ff\	.	.	.	.	.	.	.	.	.	.	.	.	.	.	.
8d\	.	8d\	.	8b-|>\	.	16ff\	.	.	.	8d\L	-num	4f\	-num	8b-\	.	.	.	.	.	.	.
.	.	.	.	.	.	16ff\	.	.	.	.	.	.	.	.	.	.	.	.	.	.	.
!	!	!	!	!	!	!	!	!	!	!	!	!	!	!LO:SIC:v:o=8a-\J	!	!	!	!	!	!	!
8c\J	.	8c\J	.	8a|>\J	.	16ff\	.	.	.	8c\J	.	.	.	8an	.	.	.	.	.	.	.
.	.	.	.	.	.	16ff\JJ	.	.	.	.	.	.	.	.	.	.	.	.	.	.	.
=24	=24	=24	=24	=24	=24	=24	=24	=24	=24	=24	=24	=24	=24	=24	=24	=24	=24	=24	=24	=24	=24
8d\L	.	8d\L	.	8b-\L	.	16ff\LL	.	1r	.	8d\L	et	4f\	et	8b-\L	et	.	.	.	.	.	1ryy
.	.	.	.	.	.	16ff\	.	.	.	.	.	.	.	.	.	.	.	.	.	.	.
!LO:SIC:v:o=8A-\	!	!LO:SIC:v:o=8A-\	!	!	!	!	!	!	!	!LO:SIC:v:o=8A-\J	!	!	!	!	!	!	!	!	!	!	!
8An	.	8An	.	8cc\	.	16ff\	.	.	.	8An	.	.	.	8cc\J	.	.	.	.	.	.	.
.	.	.	.	.	.	16ff\	.	.	.	.	.	.	.	.	.	.	.	.	.	.	.
8B-\	.	8B-\	.	8dd\	.	16ff\	.	.	.	8B-\	vi-	4f\	vi-	8dd\L	vi-	.	.	.	.	.	.
.	.	.	.	.	.	16ff\	.	.	.	.	.	.	.	.	.	.	.	.	.	.	.
!	!	!	!	!	!	!	!	!	!	!	!LO:MO:mod=-vi-	!	!	!	!	!	!	!	!	!	!
8c\J	.	8c\J	.	8ee-\J	.	16ff\	.	.	.	8c\	-fi-	.	.	8ee-\J	.	.	.	.	.	.	.
.	.	.	.	.	.	16ff\JJ	.	.	.	.	.	.	.	.	.	.	.	.	.	.	.
!	!	!	!	!	!	!	!	!	!	!	!LO:MO:mod=-fi-	!	!	!	!	!	!	!	!	!	!
8d\L	.	8d\L	.	8ff\L	.	16ff\LL	.	.	.	8d\L	-can-	4f\	-vi-	8ff\L	-vi-	.	.	.	.	.	.
.	.	.	.	.	.	16ff\	.	.	.	.	.	.	.	.	.	.	.	.	.	.	.
8f\	.	8f\	.	8dd\	.	16ff\	.	.	.	8f\J	.	.	.	8dd\J	.	.	.	.	.	.	.
.	.	.	.	.	.	16ff\	.	.	.	.	.	.	.	.	.	.	.	.	.	.	.
!	!	!	!	!	!	!	!	!	!	!	!LO:MO:mod=-can-	!	!	!	!	!	!	!	!	!	!
8e-\	.	8e-\	.	8cc\	.	16ff\	.	.	.	8e-\L	.	4f\	-fi-	8cc\L	-fi-	.	.	.	.	.	.
.	.	.	.	.	.	16ff\	.	.	.	.	.	.	.	.	.	.	.	.	.	.	.
8d\J	.	8d\J	.	8b-\J	.	16ff\	.	.	.	8d\J	.	.	.	8b-\J	.	.	.	.	.	.	.
.	.	.	.	.	.	16ff\JJ	.	.	.	.	.	.	.	.	.	.	.	.	.	.	.
=25	=25	=25	=25	=25	=25	=25	=25	=25	=25	=25	=25	=25	=25	=25	=25	=25	=25	=25	=25	=25	=25
8F\L	.	8F/L	.	8an\L	.	16ff\LL	.	1r	.	8F/L	.	2f\	-can-	8an\L	-can-	0r	0r	.	0r	.	1ryy
.	.	.	.	.	.	16ff\	.	.	.	.	.	.	.	.	.	.	.	.	.	.	.
8G\	.	8G/	.	8b-\	.	16ff\	.	.	.	8G/J	.	.	.	8b-\	.	.	.	.	.	.	.
.	.	.	.	.	.	16ff\	.	.	.	.	.	.	.	.	.	.	.	.	.	.	.
!LO:SIC:v:o=8A-\	!	!	!	!	!	!	!	!	!	!	!	!	!	!	!	!	!	!	!	!	!
8An	.	8An/	.	8cc\	.	16ff\	.	.	.	8An\L	-tem	.	.	8cc\	.	.	.	.	.	.	.
.	.	.	.	.	.	16ff\	.	.	.	.	.	.	.	.	.	.	.	.	.	.	.
8B-\J	.	8B-/J	.	8dd\J	.	16ff\	.	.	.	8B-\J	.	.	.	8dd\J	.	.	.	.	.	.	.
.	.	.	.	.	.	16ff\JJ	.	.	.	.	.	.	.	.	.	.	.	.	.	.	.
8c\L	.	8c\L	.	8ee-\L	.	16ff\LL	.	.	.	8c\L	qui	2f\	-tem	8ee-\L	-tem	.	.	.	.	.	.
.	.	.	.	.	.	16ff\	.	.	.	.	.	.	.	.	.	.	.	.	.	.	.
8e-\	.	8e-\	.	8cc\	.	16ff\	.	.	.	8e-\J	.	.	.	8cc\	.	.	.	.	.	.	.
.	.	.	.	.	.	16ff\	.	.	.	.	.	.	.	.	.	.	.	.	.	.	.
8d\	.	8d\	.	8b-\	.	16ff\	.	.	.	8d\L	ex	.	.	8b-\	.	.	.	.	.	.	.
.	.	.	.	.	.	16ff\	.	.	.	.	.	.	.	.	.	.	.	.	.	.	.
8c\J	.	8c\J	.	8a\J	.	16ff\	.	.	.	8c\J	.	.	.	8a\J	.	.	.	.	.	.	.
.	.	.	.	.	.	16ff\JJ	.	.	.	.	.	.	.	.	.	.	.	.	.	.	.
=26	=26	=26	=26	=26	=26	=26	=26	=26	=26	=26	=26	=26	=26	=26	=26	=26	=26	=26	=26	=26	=26
8d\L	.	8d\L	.	8b-\L	.	16ff\LL	.	1r	.	8d\L	Pa-	2f\	qui	8b-\L	qui	.	.	.	.	.	1ryy
.	.	.	.	.	.	16ff\	.	.	.	.	.	.	.	.	.	.	.	.	.	.	.
!LO:SIC:v:o=8A-\	!	!LO:SIC:v:o=8A-\	!	!	!	!	!	!	!	!LO:SIC:v:o=8A-\J	!	!	!	!	!	!	!	!	!	!	!
8An	.	8An	.	8cc\	.	16ff\	.	.	.	8An	.	.	.	8cc\	.	.	.	.	.	.	.
.	.	.	.	.	.	16ff\	.	.	.	.	.	.	.	.	.	.	.	.	.	.	.
8B-\	.	8B-\	.	8dd\	.	16ff\	.	.	.	8B-\	-tre	.	.	8dd\	.	.	.	.	.	.	.
.	.	.	.	.	.	16ff\	.	.	.	.	.	.	.	.	.	.	.	.	.	.	.
8c\J	.	8c\J	.	8ee-\J	.	16ff\	.	.	.	8c\	et	.	.	8ee-\J	.	.	.	.	.	.	.
.	.	.	.	.	.	16ff\JJ	.	.	.	.	.	.	.	.	.	.	.	.	.	.	.
8d\L	.	8d\L	.	8ff\L	.	16ff\LL	.	.	.	8d\L	fi-	2f\	ex	8ff\L	ex	.	.	.	.	.	.
.	.	.	.	.	.	16ff\	.	.	.	.	.	.	.	.	.	.	.	.	.	.	.
8f\	.	8f\	.	8dd\	.	16ff\	.	.	.	8f\J	.	.	.	8dd\	.	.	.	.	.	.	.
.	.	.	.	.	.	16ff\	.	.	.	.	.	.	.	.	.	.	.	.	.	.	.
8e-\	.	8e-\	.	8cc\	.	16ff\	.	.	.	8e-\L	-li-	.	.	8cc\	.	.	.	.	.	.	.
.	.	.	.	.	.	16ff\	.	.	.	.	.	.	.	.	.	.	.	.	.	.	.
8d\J	.	8d\J	.	8b-\J	.	16ff\	.	.	.	8d\J	.	.	.	8b-\J	.	.	.	.	.	.	.
.	.	.	.	.	.	16ff\JJ	.	.	.	.	.	.	.	.	.	.	.	.	.	.	.
*	*	*	*	*	*	*Xtremolo	*	*	*	*	*	*	*	*	*	*	*	*	*	*	*
=27	=27	=27	=27	=27	=27	=27	=27	=27	=27	=27	=27	=27	=27	=27	=27	=27	=27	=27	=27	=27	=27
*clefF4	*	*	*	*	*	*	*	*	*	*	*	*	*	*	*	*	*	*	*	*	*
*	*	*	*	*tremolo	*	*	*	*	*	*	*	*	*	*	*	*	*	*	*	*	*
!	!	!	!	!	!	!	!	!	!	!	!	!	!	!	!	!	!	!	!LO:TX:t=P:f = forte:problem	!LO:DY:a	!
8BB-\L	.	8B-\L	.	16b-/LL	.	8dd\L	.	8BB-/L	qui	2.B-\	-o	8d\L	Pa-	2b-\	Pa-	4B-/	4B-/	.	1b-	f	1ryy
.	.	.	.	16b-/	.	.	.	.	.	.	.	.	.	.	.	.	.	.	.	.	.
8C\	.	8c\	.	16b-/	.	8ee-\	.	8C/J	.	.	.	8e-\J	.	.	.	.	.	.	.	.	.
.	.	.	.	16b-/	.	.	.	.	.	.	.	.	.	.	.	.	.	.	.	.	.
8D\	.	8d\	.	16b-/	.	8ff\	.	8D\L	ex	.	.	8f\L	-tre	.	.	8B-/L	8B-/L	.	.	.	.
.	.	.	.	16b-/	.	.	.	.	.	.	.	.	.	.	.	.	.	.	.	.	.
8E-\J	.	8e-\J	.	16b-/	.	8gg\J	.	8E-\J	.	.	.	8g\J	.	.	.	8B-/J	8B-/J	.	.	.	.
.	.	.	.	16b-/JJ	.	.	.	.	.	.	.	.	.	.	.	.	.	.	.	.	.
8F\L	.	8f\L	.	16b-/LL	.	8aa-X\L	.	8F\L	Pa-	.	.	8a-\L	fi-	2b-\	-tre	4B-/	4B-/	.	.	.	.
.	.	.	.	16b-/	.	.	.	.	.	.	.	.	.	.	.	.	.	.	.	.	.
8A-\	.	8a-X\	.	16b-/	.	8ff\	.	8A-X\J	.	.	.	8f\J	.	.	.	.	.	.	.	.	.
.	.	.	.	16b-/	.	.	.	.	.	.	.	.	.	.	.	.	.	.	.	.	.
8G\	.	8g\	.	16b-/	.	8ee-\	.	8G\L	-tre	4B-\	et	8e-\L	-li-	.	.	4B-/	4B-/	.	.	.	.
.	.	.	.	16b-/	.	.	.	.	.	.	.	.	.	.	.	.	.	.	.	.	.
8F\J	.	8f\J	.	16b-/	.	8dd\J	.	8F\J	.	.	.	8d\J	.	.	.	.	.	.	.	.	.
.	.	.	.	16b-/JJ	.	.	.	.	.	.	.	.	.	.	.	.	.	.	.	.	.
=28	=28	=28	=28	=28	=28	=28	=28	=28	=28	=28	=28	=28	=28	=28	=28	=28	=28	=28	=28	=28	=28
8G\L	.	8g\L	.	16b-/LL	.	8ee-\L	.	8G\L	Fi-	2B-\	Fi-	8e-\L	-o-	2.b-\	fi-	1B-	1B-	.	1b-	.	1ryy
.	.	.	.	16b-/	.	.	.	.	.	.	.	.	.	.	.	.	.	.	.	.	.
8D\	.	8d\	.	16b-/	.	8ff\	.	8D\J	.	.	.	8f\	.	.	.	.	.	.	.	.	.
.	.	.	.	16b-/	.	.	.	.	.	.	.	.	.	.	.	.	.	.	.	.	.
8E-\	.	8e-\	.	16b-/	.	8gg\	.	8E-\L	-li-	.	.	8g\	.	.	.	.	.	.	.	.	.
.	.	.	.	16b-/	.	.	.	.	.	.	.	.	.	.	.	.	.	.	.	.	.
8F\J	.	8f\J	.	16b-/	.	8aa-\J	.	8F\J	.	.	.	8a-\J	.	.	.	.	.	.	.	.	.
.	.	.	.	16b-/JJ	.	.	.	.	.	.	.	.	.	.	.	.	.	.	.	.	.
8G\L	.	8g\L	.	16b-/LL	.	8bb-\L	.	8G\L	-o-	2B-\	-li-	8b-\L	-que	.	.	.	.	.	.	.	.
.	.	.	.	16b-/	.	.	.	.	.	.	.	.	.	.	.	.	.	.	.	.	.
8B-\	.	8b-\	.	16b-/	.	8gg\	.	8B-\J	.	.	.	8g\	.	.	.	.	.	.	.	.	.
.	.	.	.	16b-/	.	.	.	.	.	.	.	.	.	.	.	.	.	.	.	.	.
8A-X\	.	8a-\	.	16b-/	.	8ff\	.	8A-\L	-que	.	.	8f\	.	4b-\	-li-	.	.	.	.	.	.
.	.	.	.	16b-/	.	.	.	.	.	.	.	.	.	.	.	.	.	.	.	.	.
8G\J	.	8g\J	.	16b-/	.	8ee-\J	.	8G\J	.	.	.	8e-\J	.	.	.	.	.	.	.	.	.
.	.	.	.	16b-/JJ	.	.	.	.	.	.	.	.	.	.	.	.	.	.	.	.	.
=29	=29	=29	=29	=29	=29	=29	=29	=29	=29	=29	=29	=29	=29	=29	=29	=29	=29	=29	=29	=29	=29
8BB-\L	.	8B-\L	.	16b-/LL	.	8dd\L	.	8BB-/L	pro-	1B-	-o-	8d\L	pro-	2b-\	-o-	1B-	1B-	.	1b-	.	1ryy
.	.	.	.	16b-/	.	.	.	.	.	.	.	.	.	.	.	.	.	.	.	.	.
8C\	.	8c\	.	16b-/	.	8ee-\	.	8C/	.	.	.	8e-\	.	.	.	.	.	.	.	.	.
.	.	.	.	16b-/	.	.	.	.	.	.	.	.	.	.	.	.	.	.	.	.	.
8D\	.	8d\	.	16b-/	.	8ff\	.	8D/	.	.	.	8f\	.	.	.	.	.	.	.	.	.
.	.	.	.	16b-/	.	.	.	.	.	.	.	.	.	.	.	.	.	.	.	.	.
8E-\J	.	8e-\J	.	16b-/	.	8gg\J	.	8E-/J	.	.	.	8g\J	.	.	.	.	.	.	.	.	.
.	.	.	.	16b-/JJ	.	.	.	.	.	.	.	.	.	.	.	.	.	.	.	.	.
8F\L	.	8f\L	.	16b-/LL	.	8aa-\L	.	8F\L	-ce-	.	.	8a-\L	-ce-	2b-\	-que	.	.	.	.	.	.
.	.	.	.	16b-/	.	.	.	.	.	.	.	.	.	.	.	.	.	.	.	.	.
8A-X\	.	8a-X\	.	16b-/	.	8ff\	.	8A-X\	.	.	.	8f\	.	.	.	.	.	.	.	.	.
.	.	.	.	16b-/	.	.	.	.	.	.	.	.	.	.	.	.	.	.	.	.	.
8G\	.	8g\	.	16b-/	.	8ee-\	.	8G\	.	.	.	8e-\	.	.	.	.	.	.	.	.	.
.	.	.	.	16b-/	.	.	.	.	.	.	.	.	.	.	.	.	.	.	.	.	.
8F\J	.	8f\J	.	16b-/	.	8dd\J	.	8F\J	.	.	.	8d\J	.	.	.	.	.	.	.	.	.
.	.	.	.	16b-/JJ	.	.	.	.	.	.	.	.	.	.	.	.	.	.	.	.	.
=30	=30	=30	=30	=30	=30	=30	=30	=30	=30	=30	=30	=30	=30	=30	=30	=30	=30	=30	=30	=30	=30
*	*	*	*	*	*	*tremolo	*	*	*	*	*	*	*	*	*	*	*	*	*	*	*
8G\L	.	8g\L	.	16b-/LL	.	16ee-\LL	.	4G\	-dit	2B-\	-que	2e-\	-dit	2b-\	pro-	4G/	4e-\	.	4b-\	.	1ryy
.	.	.	.	16b-/	.	16ee-\	.	.	.	.	.	.	.	.	.	.	.	.	.	.	.
8G\	.	8g\	.	16b-/	.	16ee-\	.	.	.	.	.	.	.	.	.	.	.	.	.	.	.
.	.	.	.	16b-/JJ	.	16ee-\	.	.	.	.	.	.	.	.	.	.	.	.	.	.	.
8c\	.	8e-\	.	16g/LL	.	16ee-\	.	4e-\	que	.	.	.	.	.	.	8e-\L	8g\L	.	4ee-\	.	.
.	.	.	.	16g/	.	16ee-\	.	.	.	.	.	.	.	.	.	.	.	.	.	.	.
8c\J	.	8e-\J	.	16g/	.	16ee-\	.	.	.	.	.	.	.	.	.	8e-\J	8g\J	.	.	.	.
.	.	.	.	16g/JJ	.	16ee-\JJ	.	.	.	.	.	.	.	.	.	.	.	.	.	.	.
*tremolo	*	*tremolo	*	*	*	*	*	*	*	*	*	*	*	*	*	*	*	*	*	*	*
8c\L	.	8c\L	.	16g/LL	.	16ee-\LL	.	2c\	pro-	2c\	pro-	2g\	pro-	2ee-\	-ce-	4e-\	4g\	.	2ee-\	.	.
.	.	.	.	16g/	.	16ee-\	.	.	.	.	.	.	.	.	.	.	.	.	.	.	.
8c\	.	8c\	.	16g/	.	16ee-\	.	.	.	.	.	.	.	.	.	.	.	.	.	.	.
.	.	.	.	16g/	.	16ee-\	.	.	.	.	.	.	.	.	.	.	.	.	.	.	.
8c\	.	8c\	.	16g/	.	16ee-\	.	.	.	.	.	.	.	.	.	4r	4r	.	.	.	.
.	.	.	.	16g/	.	16ee-\	.	.	.	.	.	.	.	.	.	.	.	.	.	.	.
8c\J	.	8c\J	.	16g/	.	16ee-\	.	.	.	.	.	.	.	.	.	.	.	.	.	.	.
.	.	.	.	16g/JJ	.	16ee-\JJ	.	.	.	.	.	.	.	.	.	.	.	.	.	.	.
=31	=31	=31	=31	=31	=31	=31	=31	=31	=31	=31	=31	=31	=31	=31	=31	=31	=31	=31	=31	=31	=31
8A-\L	.	8c\L	.	16f/LL	.	16ee-\LL	.	2A-\	-ce-	1c	-ce-	1f	-ce-	1ee-	.	4f\	4f\	.	1ee-	.	1ryy
.	.	.	.	16f/	.	16ee-\	.	.	.	.	.	.	.	.	.	.	.	.	.	.	.
8A-\	.	8c\	.	16f/	.	16ee-\	.	.	.	.	.	.	.	.	.	.	.	.	.	.	.
.	.	.	.	16f/	.	16ee-\	.	.	.	.	.	.	.	.	.	.	.	.	.	.	.
8A-\	.	8c\	.	16f/	.	16ee-\	.	.	.	.	.	.	.	.	.	8f\L	8f\L	.	.	.	.
.	.	.	.	16f/	.	16ee-\	.	.	.	.	.	.	.	.	.	.	.	.	.	.	.
8A-\J	.	8c\J	.	16f/	.	16ee-\	.	.	.	.	.	.	.	.	.	8f\J	8f\J	.	.	.	.
.	.	.	.	16f/JJ	.	16ee-\JJ	.	.	.	.	.	.	.	.	.	.	.	.	.	.	.
*	*	*	*	*Xtremolo	*	*	*	*	*	*	*	*	*	*	*	*	*	*	*	*	*
8An\L	.	8An\L	.	16f/LL	.	16ee-\LL	.	2An\	.	.	.	.	.	.	.	4f\	4f\	.	.	.	.
.	.	.	.	16cc/	.	16ee-\	.	.	.	.	.	.	.	.	.	.	.	.	.	.	.
8A\	.	8A\	.	16g/	.	16ee-\	.	.	.	.	.	.	.	.	.	.	.	.	.	.	.
.	.	.	.	16cc/JJ	.	16ee-\	.	.	.	.	.	.	.	.	.	.	.	.	.	.	.
8A\	.	8A\	.	16f/LL	.	16ee-\	.	.	.	.	.	.	.	.	.	4r	4r	.	.	.	.
.	.	.	.	16cc/	.	16ee-\	.	.	.	.	.	.	.	.	.	.	.	.	.	.	.
8A\J	.	8A\J	.	16f/	.	16ee-\	.	.	.	.	.	.	.	.	.	.	.	.	.	.	.
.	.	.	.	16cc/JJ	.	16ee-\JJ	.	.	.	.	.	.	.	.	.	.	.	.	.	.	.
*Xtremolo	*	*Xtremolo	*	*	*	*	*	*	*	*	*	*	*	*	*	*	*	*	*	*	*
=32	=32	=32	=32	=32	=32	=32	=32	=32	=32	=32	=32	=32	=32	=32	=32	=32	=32	=32	=32	=32	=32
4B-\	.	4B-/	.	4b-/	.	4dd\	.	4B-\	-dit	4B-\	-dit	4f\	-dit	4dd\	-dit	4B-/	4f\	.	4dd\	.	1ryy
4BB-/	.	4B-/	.	4d/	.	4bb-\	.	4r	.	4r	.	4r	.	4r	.	4B-/	4f\	.	4dd\	.	.
4BB-/	.	4B-/	.	4d/	.	4b- 4d/	.	2r	.	2r	.	2r	.	2r	.	4B-/	4f\	.	4dd\	.	.
16B-\LL	.	16b-\LL	.	4r	.	4r	.	.	.	.	.	.	.	.	.	4r	4r	.	4r	.	.
16A-\	.	16a-\	.	.	.	.	.	.	.	.	.	.	.	.	.	.	.	.	.	.	.
16G\	.	16g\	.	.	.	.	.	.	.	.	.	.	.	.	.	.	.	.	.	.	.
16F\JJ	.	16f\JJ	.	.	.	.	.	.	.	.	.	.	.	.	.	.	.	.	.	.	.
=33	=33	=33	=33	=33	=33	=33	=33	=33	=33	=33	=33	=33	=33	=33	=33	=33	=33	=33	=33	=33	=33
!	!	!	!	!	!	!	!	!	!	!	!	!	!	!	!	!LO:TX:b:t=pau	!	!	!	!	!
!	!LO:DY:a	!	!LO:DY:a	!	!LO:DY:a	!	!	!	!	!LO:TX:a:Bi:t=Solo	!	!	!	!LO:TX:b:t=19	!	!LO:TX:a:t=19	!LO:TX:a:t=19	!	!LO:TX:a:t=19.	!	!
4E-\	pp	4e-\	p	8B-/	p	4r	.	00r	.	2.B-\	qui	00r	.	00r	.	00r	00r	.	00r	.	1ryy
.	.	.	.	4B-/	.	.	.	.	.	.	.	.	.	.	.	.	.	.	.	.	.
4G\	.	4e-\	.	.	.	4ee-\	p	.	.	.	.	.	.	.	.	.	.	.	.	.	.
.	.	.	.	4B-/	.	.	.	.	.	.	.	.	.	.	.	.	.	.	.	.	.
4F\	.	4d\	.	.	.	4ff\	.	.	.	.	.	.	.	.	.	.	.	.	.	.	.
.	.	.	.	4B-/	.	.	.	.	.	.	.	.	.	.	.	.	.	.	.	.	.
4E-\	.	4e-\	.	.	.	4gg\	.	.	.	4B-\	cum	.	.	.	.	.	.	.	.	.	.
.	.	.	.	8B-/	.	.	.	.	.	.	.	.	.	.	.	.	.	.	.	.	.
=34	=34	=34	=34	=34	=34	=34	=34	=34	=34	=34	=34	=34	=34	=34	=34	=34	=34	=34	=34	=34	=34
2D\	.	1f	.	8B-/	.	(8bb-\L	.	.	.	2B-\	Pa-	.	.	.	.	.	.	.	.	.	1ryy
.	.	.	.	4B-/	.	8aa-\)	.	.	.	.	.	.	.	.	.	.	.	.	.	.	.
.	.	.	.	.	.	8gg|>\	.	.	.	.	.	.	.	.	.	.	.	.	.	.	.
.	.	.	.	4B-/	.	8ff|>\J	.	.	.	.	.	.	.	.	.	.	.	.	.	.	.
2A-\	.	.	.	.	.	(8ee-\L	.	.	.	4B-\	-tre	.	.	.	.	.	.	.	.	.	.
.	.	.	.	4B-/	.	8dd\)	.	.	.	.	.	.	.	.	.	.	.	.	.	.	.
.	.	.	.	.	.	8cc|>\	.	.	.	4B-\	et	.	.	.	.	.	.	.	.	.	.
.	.	.	.	[8B-/	.	8b-|>\J	.	.	.	.	.	.	.	.	.	.	.	.	.	.	.
=35	=35	=35	=35	=35	=35	=35	=35	=35	=35	=35	=35	=35	=35	=35	=35	=35	=35	=35	=35	=35	=35
!	!	!	!	!LO:TX:t=P:problem=w źródle łuk pod nutą [przyjęto ligaturę]	!	!	!	!	!	!	!	!	!	!	!	!	!	!	!	!	!
2G\	.	2e-\	.	8B-/]	.	(8ee-\L	.	.	.	4B-\	fi-	.	.	.	.	.	.	.	.	.	1ryy
.	.	.	.	4B-/	.	8b-\)	.	.	.	.	.	.	.	.	.	.	.	.	.	.	.
.	.	.	.	.	.	8b-|>\	.	.	.	8B-\	-li-	.	.	.	.	.	.	.	.	.	.
.	.	.	.	4B-/	.	8b-|>\J	.	.	.	8B-\	-o	.	.	.	.	.	.	.	.	.	.
2E-\	.	2g\	.	.	.	(8b-\L	.	.	.	4B-\	Si-	.	.	.	.	.	.	.	.	.	.
.	.	.	.	4B-/	.	8ee-\)	.	.	.	.	.	.	.	.	.	.	.	.	.	.	.
.	.	.	.	.	.	8gg|>\	.	.	.	4B-\	-mul	.	.	.	.	.	.	.	.	.	.
.	.	.	.	8B-/	.	8bb-|>\J	.	.	.	.	.	.	.	.	.	.	.	.	.	.	.
=36	=36	=36	=36	=36	=36	=36	=36	=36	=36	=36	=36	=36	=36	=36	=36	=36	=36	=36	=36	=36	=36
2D\	.	1f	.	8B-/	.	(8bb-\L	.	.	.	4B-\	a-	.	.	.	.	.	.	.	.	.	1ryy
.	.	.	.	4B-'/	.	8aa-\)	.	.	.	.	.	.	.	.	.	.	.	.	.	.	.
.	.	.	.	.	.	8gg|>\	.	.	.	4B-\	-do-	.	.	.	.	.	.	.	.	.	.
.	.	.	.	4B-/	.	8ff|>\J	.	.	.	.	.	.	.	.	.	.	.	.	.	.	.
2A-\	.	.	.	.	.	(8ee-\L	.	.	.	2B-\	-ra-	.	.	.	.	.	.	.	.	.	.
.	.	.	.	4B-/	.	8dd\)	.	.	.	.	.	.	.	.	.	.	.	.	.	.	.
.	.	.	.	.	.	8cc|>\	.	.	.	.	.	.	.	.	.	.	.	.	.	.	.
.	.	.	.	8B-/	.	8b-|>\J	.	.	.	.	.	.	.	.	.	.	.	.	.	.	.
=37	=37	=37	=37	=37	=37	=37	=37	=37	=37	=37	=37	=37	=37	=37	=37	=37	=37	=37	=37	=37	=37
4G\	.	4e-\	.	4B-/	.	8ee-\	.	4r	.	4B-\	-tur	00r	.	00r	.	00r	00r	.	00r	.	1ryy
.	.	.	.	.	.	4ee-\	.	.	.	.	.	.	.	.	.	.	.	.	.	.	.
!	!	!	!	!	!	!	!	!LO:TX:a:Bi:t=Solo	!	!	!	!	!	!	!	!	!	!	!	!	!
4E-\	.	4E-/	.	4g/	.	.	.	4E-\	con-	4G/	et	.	.	.	.	.	.	.	.	.	.
.	.	.	.	.	.	4ee-\	.	.	.	.	.	.	.	.	.	.	.	.	.	.	.
4F\	.	4F/	.	4a-/	.	.	.	4F\	-fi-	4A-/	con-	.	.	.	.	.	.	.	.	.	.
.	.	.	.	.	.	4ee-\	.	.	.	.	.	.	.	.	.	.	.	.	.	.	.
4G\	.	4G/	.	4b-/	.	.	.	4G\	-te-	4B-\	-glo-	.	.	.	.	.	.	.	.	.	.
.	.	.	.	.	.	[8ee-\	.	.	.	.	.	.	.	.	.	.	.	.	.	.	.
=38	=38	=38	=38	=38	=38	=38	=38	=38	=38	=38	=38	=38	=38	=38	=38	=38	=38	=38	=38	=38	=38
4A-\	.	4A-/	.	4cc\	.	8ee-\]	.	4A-\	-or	4c\	-ri-	.	.	.	.	.	.	.	.	.	1ryy
.	.	.	.	.	.	4ee-\	.	.	.	.	.	.	.	.	.	.	.	.	.	.	.
*	*	*	*	*	*	*	*	*	*ij	*	*	*	*	*	*	*	*	*	*	*	*
4B-\	.	4B-/	.	4dd-X\	.	.	.	4B-\	con-	4d-X\	-fi-	.	.	.	.	.	.	.	.	.	.
.	.	.	.	.	.	4ee-\	.	.	.	.	.	.	.	.	.	.	.	.	.	.	.
4A-\	.	4A-/	.	4cc\	.	.	.	4A-\	-fi-	(4c\	-ca-	.	.	.	.	.	.	.	.	.	.
.	.	.	.	.	.	4ee-\	.	.	.	.	.	.	.	.	.	.	.	.	.	.	.
4G\	.	4G/	.	4b-\	.	.	.	4G\	-te-	4B-\)	.	.	.	.	.	.	.	.	.	.	.
.	.	.	.	.	.	8een\	.	.	.	.	.	.	.	.	.	.	.	.	.	.	.
=39	=39	=39	=39	=39	=39	=39	=39	=39	=39	=39	=39	=39	=39	=39	=39	=39	=39	=39	=39	=39	=39
!	!	!	!	!	!	!	!	!LO:TX:t=P:global:problem=w źródle znak oddechu na 1 linii	!	!	!	!	!	!	!	!	!	!	!	!	!
4F\	.	4F/	.	4an/	.	8ff\	.	4F,<\	-or	4An\	-tur	.	.	.	.	.	.	.	.	.	1ryy
.	.	.	.	.	.	4ff\	.	.	.	.	.	.	.	.	.	.	.	.	.	.	.
*	*	*	*	*	*	*	*	*	*Xij	*	*	*	*	*	*	*	*	*	*	*	*
4F\	.	4F/	.	4a/	.	.	.	4F\	u-	(4A\	qui	.	.	.	.	.	.	.	.	.	.
.	.	.	.	.	.	[8ff\	.	.	.	.	.	.	.	.	.	.	.	.	.	.	.
4G\	.	4G/	.	4b-\	.	8ff\]	.	4G\	-nam	4B-\)	.	.	.	.	.	.	.	.	.	.	.
.	.	.	.	.	.	4ff\	.	.	.	.	.	.	.	.	.	.	.	.	.	.	.
4An\	.	4An/	.	4cc\	.	.	.	4An\	bap-	4c\	lo-	.	.	.	.	.	.	.	.	.	.
.	.	.	.	.	.	[8ff\	.	.	.	.	.	.	.	.	.	.	.	.	.	.	.
=40	=40	=40	=40	=40	=40	=40	=40	=40	=40	=40	=40	=40	=40	=40	=40	=40	=40	=40	=40	=40	=40
4B-\	.	4B-/	.	4dd\	.	8ff\]	.	4B-\	-tiſ-	8d\	-cu-	.	.	.	.	.	.	.	.	.	1ryy
.	.	.	.	.	.	4ff\	.	.	.	8d\	-tus	.	.	.	.	.	.	.	.	.	.
4c\	.	4c/	.	4ee-\	.	.	.	4c\	.	4e-X\	e(st)	.	.	.	.	.	.	.	.	.	.
.	.	.	.	.	.	4ff\	.	.	.	.	.	.	.	.	.	.	.	.	.	.	.
4B-\	.	4B-/	.	4dd\	.	.	.	4B-\	.	4d\	per	.	.	.	.	.	.	.	.	.	.
.	.	.	.	.	.	4ff\	.	.	.	.	.	.	.	.	.	.	.	.	.	.	.
4A-X\	.	4A-/	.	4cc\	.	.	.	4A-X\	.	4c\	pro-	.	.	.	.	.	.	.	.	.	.
.	.	.	.	.	.	8ff#X\	.	.	.	.	.	.	.	.	.	.	.	.	.	.	.
=41	=41	=41	=41	=41	=41	=41	=41	=41	=41	=41	=41	=41	=41	=41	=41	=41	=41	=41	=41	=41	=41
4G\	.	4G/	.	4bn\	.	8gg\	.	4G,<\	-ma	2Bn\	-phe-	00r	.	00r	.	00r	00r	.	00r	.	1ryy
.	.	.	.	.	.	4gg\	.	.	.	.	.	.	.	.	.	.	.	.	.	.	.
4G\	.	4G/	.	4b\	.	.	.	(4G\	in	.	.	.	.	.	.	.	.	.	.	.	.
.	.	.	.	.	.	4gg\	.	.	.	.	.	.	.	.	.	.	.	.	.	.	.
!	!	!LO:SIC:v:o=4A-/	!	!	!	!	!	!	!	!	!	!	!	!	!	!	!	!	!	!	!
4An\	.	4An	.	4cc\	.	.	.	4An\)	.	4c\	-tas	.	.	.	.	.	.	.	.	.	.
.	.	.	.	.	.	4gg\	.	.	.	.	.	.	.	.	.	.	.	.	.	.	.
4Bn\	.	4Bn/	.	4dd\	.	.	.	4Bn\	re-	4d\	et	.	.	.	.	.	.	.	.	.	.
.	.	.	.	.	.	[8gg\	.	.	.	.	.	.	.	.	.	.	.	.	.	.	.
=42	=42	=42	=42	=42	=42	=42	=42	=42	=42	=42	=42	=42	=42	=42	=42	=42	=42	=42	=42	=42	=42
4c\	.	4c\	.	4ee-\	.	8gg\]	.	4c\	-miſ-	4e-\	u-	.	.	.	.	.	.	.	.	.	1ryy
.	.	.	.	.	.	4gg\	.	.	.	.	.	.	.	.	.	.	.	.	.	.	.
4d\	.	4B-\	.	4ff\	.	.	.	4d\	-si-	4f\	-nam	.	.	.	.	.	.	.	.	.	.
.	.	.	.	.	.	4gg\	.	.	.	.	.	.	.	.	.	.	.	.	.	.	.
4c\	.	4c\	.	4ee-\	.	.	.	4c\	-o-	(4e-\	San-	.	.	.	.	.	.	.	.	.	.
.	.	.	.	.	.	4gg\	.	.	.	.	.	.	.	.	.	.	.	.	.	.	.
4e-\	.	4e-\	.	4cc\	.	.	.	4C/	.	4c\)	.	.	.	.	.	.	.	.	.	.	.
.	.	.	.	.	.	8gg\	.	.	.	.	.	.	.	.	.	.	.	.	.	.	.
=43	=43	=43	=43	=43	=43	=43	=43	=43	=43	=43	=43	=43	=43	=43	=43	=43	=43	=43	=43	=43	=43
!	!	!	!	!	!	!LO:TX:t=P:problem=mixed beam	!	!	!	!	!	!	!	!	!	!	!	!	!	!	!
2G\	.	2Bn/	.	8bn/	.	8gg\L	.	4G\	-nem	4Bn\	-ctam	.	.	.	.	.	.	.	.	.	1ryy
.	.	.	.	4g/	.	8g/	.	.	.	.	.	.	.	.	.	.	.	.	.	.	.
.	.	.	.	.	.	8g/	.	4r	.	4r	.	.	.	.	.	.	.	.	.	.	.
.	.	.	.	4g/	.	8g/J	.	.	.	.	.	.	.	.	.	.	.	.	.	.	.
2Bn\	.	2G/	.	.	.	8g\L	.	2r	.	8F\L	Ca-	.	.	.	.	.	.	.	.	.	.
.	.	.	.	4g/	.	8bn\	.	.	.	8B\	.	.	.	.	.	.	.	.	.	.	.
.	.	.	.	.	.	8dd\	.	.	.	8d\	.	.	.	.	.	.	.	.	.	.	.
.	.	.	.	8g/	.	8ff\J	.	.	.	8f\J	.	.	.	.	.	.	.	.	.	.	.
=44	=44	=44	=44	=44	=44	=44	=44	=44	=44	=44	=44	=44	=44	=44	=44	=44	=44	=44	=44	=44	=44
!	!	!	!	!LO:TX:t=P:problem=mixed beam	!	!	!	!	!	!	!	!	!	!	!	!	!	!	!	!	!
.	.	.	.	.	.	8qqff/	.	.	.	.	.	.	.	.	.	.	.	.	.	.	.
2c\	.	1G	.	8cc\L	.	4ee-\	.	4c\	in	8f\L	-tho-	.	.	.	.	.	.	.	.	.	1ryy
.	.	.	.	8c/	.	.	.	.	.	8e-\J	.	.	.	.	.	.	.	.	.	.	.
.	.	.	.	8c/	.	8dd\L	.	4C/	re-	8d\L	-li-	.	.	.	.	.	.	.	.	.	.
.	.	.	.	8c/J	.	8cc\J	.	.	.	8c\J	.	.	.	.	.	.	.	.	.	.	.
2E-\	.	.	.	8c/L	.	4cc\	.	8C/L	-mi-	4c\	-cam	.	.	.	.	.	.	.	.	.	.
.	.	.	.	8e-/	.	.	.	8E-/J	.	.	.	.	.	.	.	.	.	.	.	.	.
.	.	.	.	8g/	.	4r	.	8G\L	-ſsi-	4r	.	.	.	.	.	.	.	.	.	.	.
.	.	.	.	8cc/J	.	.	.	8c\J	.	.	.	.	.	.	.	.	.	.	.	.	.
=45	=45	=45	=45	=45	=45	=45	=45	=45	=45	=45	=45	=45	=45	=45	=45	=45	=45	=45	=45	=45	=45
!	!	!	!	!	!	!LO:TX:t=P:problem=mixed beam	!	!	!	!	!	!	!	!	!	!	!	!	!	!	!
.	.	.	.	8qqcc/	.	.	.	8qqc/	.	.	.	.	.	.	.	.	.	.	.	.	.
2G\	.	2Bn/	.	4bn/	.	8gg\L	.	4Bn\	-o-	4r	.	00r	.	00r	.	00r	00r	.	00r	.	1ryy
.	.	.	.	.	.	8g/	.	.	.	.	.	.	.	.	.	.	.	.	.	.	.
.	.	.	.	8a-/L	.	8g/	.	8A-\L	.	4G/	et	.	.	.	.	.	.	.	.	.	.
.	.	.	.	8g/J	.	8g/J	.	8G\J	.	.	.	.	.	.	.	.	.	.	.	.	.
2BBn/	.	2G/	.	4g/	.	8g\L	.	4G\	-nem	8G\L	A-	.	.	.	.	.	.	.	.	.	.
.	.	.	.	.	.	8bn\	.	.	.	8Bn\J	.	.	.	.	.	.	.	.	.	.	.
.	.	.	.	4r	.	8dd\	.	4r	.	8d\L	-pos-	.	.	.	.	.	.	.	.	.	.
.	.	.	.	.	.	8ff\J	.	.	.	8f\J	.	.	.	.	.	.	.	.	.	.	.
=46	=46	=46	=46	=46	=46	=46	=46	=46	=46	=46	=46	=46	=46	=46	=46	=46	=46	=46	=46	=46	=46
!	!	!	!	!LO:TX:t=P:problem=mixed beam	!	!	!	!	!	!	!	!	!	!	!	!	!	!	!	!	!
.	.	.	.	.	.	8qqff/	.	.	.	.	.	.	.	.	.	.	.	.	.	.	.
2C/	.	1G	.	8cc\L	.	4ee-\	.	4r	.	8f\L	-to-	.	.	.	.	.	.	.	.	.	1ryy
.	.	.	.	8c/	.	.	.	.	.	8e-\J	.	.	.	.	.	.	.	.	.	.	.
.	.	.	.	8c/	.	8dd\L	.	4C/	pec-	8d\L	-li-	.	.	.	.	.	.	.	.	.	.
.	.	.	.	8c/J	.	8cc\J	.	.	.	8c\J	.	.	.	.	.	.	.	.	.	.	.
2E-/	.	.	.	8c/L	.	4cc\	.	8C/L	.	4c\	-cam	.	.	.	.	.	.	.	.	.	.
.	.	.	.	8e-/	.	.	.	8E-/J	.	.	.	.	.	.	.	.	.	.	.	.	.
.	.	.	.	8g/	.	4r	.	8G\L	-ca-	4r	.	.	.	.	.	.	.	.	.	.	.
.	.	.	.	8cc/J	.	.	.	8c\J	.	.	.	.	.	.	.	.	.	.	.	.	.
=47	=47	=47	=47	=47	=47	=47	=47	=47	=47	=47	=47	=47	=47	=47	=47	=47	=47	=47	=47	=47	=47
1F#X	.	2r	.	1an	.	4r	.	1F#X	-to-	4r	.	.	.	.	.	.	.	.	.	.	1ryy
.	.	.	.	.	.	4ee-\	.	.	.	4e-\	Ec-	.	.	.	.	.	.	.	.	.	.
.	.	2d\	.	.	.	(4dd\	.	.	.	4d\	-cle-	.	.	.	.	.	.	.	.	.	.
.	.	.	.	.	.	4cc\)	.	.	.	4c\	-si-	.	.	.	.	.	.	.	.	.	.
=48	=48	=48	=48	=48	=48	=48	=48	=48	=48	=48	=48	=48	=48	=48	=48	=48	=48	=48	=48	=48	=48
4G\	.	4d\	.	8g/	.	(8bn\L	.	4G\	-rum	4Bn\	-am	.	.	.	.	.	.	.	.	.	1ryy
.	.	.	.	4g/	.	8dd\)	.	.	.	.	.	.	.	.	.	.	.	.	.	.	.
4E-\	.	4e-\	.	.	.	(8cc\	.	(4E-\	pec-	4c\	et	.	.	.	.	.	.	.	.	.	.
.	.	.	.	4g/	.	8ee-\J)	.	.	.	.	.	.	.	.	.	.	.	.	.	.	.
4BBn/	.	(8Bn\L	.	.	.	(8dd\L	.	4BBn/)	.	4d\	A-	.	.	.	.	.	.	.	.	.	.
.	.	8d\)	.	4g/	.	8ff\)	.	.	.	.	.	.	.	.	.	.	.	.	.	.	.
4GG/	.	8d'\	.	.	.	8ff'\	.	4D/	-ca-	4f\	-pos-	.	.	.	.	.	.	.	.	.	.
.	.	8d'\J	.	8g/	.	8ff'\J	.	.	.	.	.	.	.	.	.	.	.	.	.	.	.
=49	=49	=49	=49	=49	=49	=49	=49	=49	=49	=49	=49	=49	=49	=49	=49	=49	=49	=49	=49	=49	=49
2C\	.	2c\	.	2g/	.	4ff\	.	2C/	-to-	(4f\	-to-	0r	.	0r	.	0r	0r	.	0r	.	1ryy
.	.	.	.	.	.	4ee-\	.	.	.	4e-\	.	.	.	.	.	.	.	.	.	.	.
2F#X\	.	2d\	.	2an/	.	4dd\	.	2F#X\	.	4d\)	.	.	.	.	.	.	.	.	.	.	.
.	.	.	.	.	.	4cc\	.	.	.	4c\	-li-	.	.	.	.	.	.	.	.	.	.
=50	=50	=50	=50	=50	=50	=50	=50	=50	=50	=50	=50	=50	=50	=50	=50	=50	=50	=50	=50	=50	=50
4G\	.	4g\	.	4d/	.	4bn\	.	4G\	.	4Bn\	-cam	.	.	.	.	.	.	.	.	.	1ryy
4C/	.	4c\	.	8e-/L	.	8cc/L	.	4C/	.	8c\L	Ec-	.	.	.	.	.	.	.	.	.	.
.	.	.	.	8c/J	.	8an/J	.	.	.	8A-\J	.	.	.	.	.	.	.	.	.	.	.
!	!	!	!	!	!	!	!	!	!	!	!LO:MO:mod=-cle	!	!	!	!	!	!	!	!	!	!
2D\	.	4d\	.	4Bn/	.	4g/	.	2D\	.	4G/	-le-	.	.	.	.	.	.	.	.	.	.
.	.	4d\	.	8c/L	.	8an/L	.	.	.	8A-/L	-si-	.	.	.	.	.	.	.	.	.	.
!	!	!	!	!LO:SIC:v:o=8A-/J	!	!	!	!	!	!	!	!	!	!	!	!	!	!	!	!	!
.	.	.	.	8An	.	8f#X/J	.	.	.	8F#X/J	.	.	.	.	.	.	.	.	.	.	.
=51	=51	=51	=51	=51	=51	=51	=51	=51	=51	=51	=51	=51	=51	=51	=51	=51	=51	=51	=51	=51	=51
4G\	.	4G/	.	4B-/	.	4g/	.	4G\	-rum	4G/	-am	1r	.	1r	.	1r	1r	.	1r	.	1ryy
4GG/	.	4G/	.	4B-/	.	4g/	.	4r	.	4r	.	.	.	.	.	.	.	.	.	.	.
4GG/	.	4G/	.	4B-/	.	4g/	.	2r	.	2r	.	.	.	.	.	.	.	.	.	.	.
!LO:TX:a:Bi:t=Tui	!	!	!	!	!	!	!	!	!	!	!	!	!	!	!	!	!	!	!	!	!
4r	.	4r	.	4r	.	4r	.	.	.	.	.	.	.	.	.	.	.	.	.	.	.
=52	=52	=52	=52	=52	=52	=52	=52	=52	=52	=52	=52	=52	=52	=52	=52	=52	=52	=52	=52	=52	=52
*	*	*	*	*^	*	*	*	*	*	*	*	*	*	*	*	*	*	*	*	*	*
!	!	!	!LO:DY:a	!	!	!LO:DY:a	!LO:TX:a:t=Tutti	!	!	!	!	!	!	!	!	!	!	!	!	!	!	!
4e-\	.	4e-\	f	4g 4B-X/	2rAyy	f	4ee- 4e-/	.	4r	.	4r	.	4r	.	4r	.	4G/	4e-\	.	4g/	.	1ryy
!	!	!	!	!	!	!	!	!	!LO:TX:t=P:problem=w źródle niejednoznaczny zapis łuk / fermata [przyjęto łuk]	!	!	!	!	!	!	!	!	!	!	!	!	!
!	!	!	!	!	!	!	!	!	!LO:TX:a:Bi:t=T.	!	!LO:TX:a:t=T.	!	!	!	!	!	!	!	!	!	!	!
4E-\	.	4e-\	.	16g/LL	.	.	16ee-\LL	.	(4E-\	et	2B-\	et	2g\	Et	2ee-\	Et	2G/	2e-\	.	4g/	.	.
.	.	.	.	16f/	.	.	16dd\	.	.	.	.	.	.	.	.	.	.	.	.	.	.	.
.	.	.	.	16g/	.	.	16ee-\	.	.	.	.	.	.	.	.	.	.	.	.	.	.	.
.	.	.	.	16a-/JJ	.	.	16ff\JJ	.	.	.	.	.	.	.	.	.	.	.	.	.	.	.
4G\	.	4g\	.	4g/	4reyy	.	4ee-\	.	4G\)	.	.	.	.	.	.	.	.	.	.	4b-\	.	.
4B-\	.	4d\	.	4b-/	4f\	.	4ff\	.	4B-\	ex-	4B-\	ex-	4f\	ex-	4dd\	ex-	4B-/	4f\	.	4dd\	.	.
=53	=53	=53	=53	=53	=53	=53	=53	=53	=53	=53	=53	=53	=53	=53	=53	=53	=53	=53	=53	=53	=53	=53
*	*	*	*	*	*	*	*^	*	*	*	*	*	*	*	*	*	*	*	*	*	*	*
4e-\	.	4e-\	.	4b-/	4g\	.	4gg/	4b-\	.	4e-\	-pec-	1B-	-pec-	4g\	-spec-	4ee-\	-pec-	4e-\	4g\	.	4ee-\	.	1ryy
!	!	!	!	!	!	!	!LO:TX:a:t=P:problem=w źródle to albo 8gg [przednutka]	!	!	!	!	!	!	!	!	!	!	!	!	!	!	!	!
.	.	8qg/	.	.	.	.	8qqbb-/	.	.	.	.	.	.	.	.	.	.	.	.	.	.	.	.
4B-\	.	8f\L	.	4b-/	4f\	.	8aa-\L	4ryy	.	4B-\	.	.	.	8a-\L	.	8ff\L	.	4B-/	4f\	.	8ff\L	.	.
.	.	16e-\L	.	.	.	.	16gg\L	.	.	.	.	.	.	8f\J	.	8dd\J	.	.	.	.	8dd\J	.	.
.	.	16d\JJ	.	.	.	.	16ff\JJ	.	.	.	.	.	.	.	.	.	.	.	.	.	.	.	.
4e-\	.	4e-\	.	4b-/	4g\	.	4gg/	4b-\	.	4e-\	.	.	.	4g\	.	4ee-\	.	4e-\	4g\	.	4ee-\	.	.
!	!	!	!	!	!	!	!LO:TX:a:t=P:problem=w źródle to albo 8gg [przednutka]	!	!	!	!	!	!	!	!	!	!	!	!	!	!	!	!
.	.	8qg/	.	.	.	.	8qqbb-/	.	.	.	.	.	.	.	.	.	.	.	.	.	.	.	.
4B-\	.	8f\L	.	4b-/	4f\	.	8aa-\L	4ryy	.	4B-\	.	.	.	8a-\L	.	8ff\L	.	4B-/	4f\	.	8ff\L	.	.
.	.	16e-\L	.	.	.	.	16gg\L	.	.	.	.	.	.	8f\J	.	8dd\J	.	.	.	.	8dd\J	.	.
.	.	16d\JJ	.	.	.	.	16ff\JJ	.	.	.	.	.	.	.	.	.	.	.	.	.	.	.	.
*	*	*	*	*	*	*	*v	*v	*	*	*	*	*	*	*	*	*	*	*	*	*	*	*
=54	=54	=54	=54	=54	=54	=54	=54	=54	=54	=54	=54	=54	=54	=54	=54	=54	=54	=54	=54	=54	=54	=54
4E-\	.	4e-\	.	4b-/	4g\	.	8gg\L	.	4E-\	-to	4B-\	-to	4g\	-to	4ee-\	-to	4e-\	4g\	.	4ee-\	.	1ryy
.	.	.	.	.	.	.	8ee-\	p	.	.	.	.	.	.	.	.	.	.	.	.	.	.
!	!	!	!LO:DY:a	!	!	!	!	!	!	!	!	!	!	!	!	!	!	!	!	!	!	!
4r	.	4r	p	4r	4rgyy	.	(8gg\	.	4r	.	4r	.	4r	.	4r	.	4r	4r	.	4r	.	.
.	.	.	.	.	.	.	8ee-\J)	.	.	.	.	.	.	.	.	.	.	.	.	.	.	.
!	!LO:DY:a	!	!	!	!	!LO:DY:a	!	!	!	!	!	!	!	!	!	!	!	!	!	!	!	!
4A-\	p	4A-/	.	4e-/	2reyy	p	8r	.	2r	.	2r	.	2r	.	2r	.	2r	2r	.	2r	.	.
.	.	.	.	.	.	.	8cc|>\L	.	.	.	.	.	.	.	.	.	.	.	.	.	.	.
4r	.	4r	.	4r	.	.	(8ee-\	.	.	.	.	.	.	.	.	.	.	.	.	.	.	.
.	.	.	.	.	.	.	8cc\J)	.	.	.	.	.	.	.	.	.	.	.	.	.	.	.
*	*	*	*	*v	*v	*	*	*	*	*	*	*	*	*	*	*	*	*	*	*	*	*
=55	=55	=55	=55	=55	=55	=55	=55	=55	=55	=55	=55	=55	=55	=55	=55	=55	=55	=55	=55	=55	=55
!	!	!	!	!	!	!	!	!	!	!	!	!	!	!	!	!	!LO:TX:a:t=1	!	!LO:TX:a:t=1.	!	!
4B-\	.	4B-/	.	8r	.	8r	.	1r	.	1r	.	1r	.	1r	.	1r	1r	.	1r	.	1ryy
.	.	.	.	8g|</L	.	8b-|</L	.	.	.	.	.	.	.	.	.	.	.	.	.	.	.
4r	.	4r	.	(8a-/	.	(8cc/	.	.	.	.	.	.	.	.	.	.	.	.	.	.	.
.	.	.	.	8e-/J)	.	8g/J)	.	.	.	.	.	.	.	.	.	.	.	.	.	.	.
4BB-/	.	4B-/	.	8r	.	8r	.	.	.	.	.	.	.	.	.	.	.	.	.	.	.
.	.	.	.	8f|</L	.	8a-|</L	.	.	.	.	.	.	.	.	.	.	.	.	.	.	.
4r	.	4r	.	(8g/	.	(8b-/	.	.	.	.	.	.	.	.	.	.	.	.	.	.	.
.	.	.	.	8d/J)	.	8f/J)	.	.	.	.	.	.	.	.	.	.	.	.	.	.	.
=56	=56	=56	=56	=56	=56	=56	=56	=56	=56	=56	=56	=56	=56	=56	=56	=56	=56	=56	=56	=56	=56
*	*	*	*	*^	*	*^	*	*	*	*	*	*	*	*	*	*	*	*	*	*	*
!	!	!	!LO:DY:a	!	!	!LO:DY:a	!	!	!	!	!	!	!	!	!	!	!	!	!	!	!	!	!
4E-\	f	4e-\	f	4e-/	2reyy	f	4ee-/	4g\	f	4E-\	re-	4B-\	re-	4g\	re-	4ee-\	Re-	4G/	4e-\	.	4g/	.	1ryy
!	!	!	!	!	!	!	!	!	!	!	!	!	!LO:MO:mod=-sur-	!	!LO:MO:mod=-sur-	!	!LO:MO:mod=-sur-	!	!	!	!	!	!
4E-\	.	4e-\	.	16g/LL	.	.	16ee-\LL	4rcyy	.	4E-\	-su-	4B-\	-su-	4g\	-su-	4ee-\	-su-	2G/	2e-\	.	2g/	.	.
.	.	.	.	16f/	.	.	16dd\	.	.	.	.	.	.	.	.	.	.	.	.	.	.	.	.
.	.	.	.	16g/	.	.	16ee-\	.	.	.	.	.	.	.	.	.	.	.	.	.	.	.	.
.	.	.	.	16a-/JJ	.	.	16ff\JJ	.	.	.	.	.	.	.	.	.	.	.	.	.	.	.	.
4G\	.	4g\	.	4g/	4reyy	.	4ee-\	2rgyy	.	4G\	-rec-	4B-\	-rec-	4g\	-rec-	4ee-\	-rec-	.	.	.	.	.	.
!	!	!	!	!	!LO:SIC:v:o=4g\	!	!	!	!	!	!	!	!	!	!	!	!	!	!	!	!	!	!
4B-\	.	4d\	.	4b-/	4f\	.	4ff\	.	.	4B-\	-ti-	4B-\	-ti-	4f\	-ti-	4dd\	-ti-	4B-/	4f\	.	4dd\	.	.
=57	=57	=57	=57	=57	=57	=57	=57	=57	=57	=57	=57	=57	=57	=57	=57	=57	=57	=57	=57	=57	=57	=57	=57
4e-\	.	4e-\	.	4b-/	4g\	.	4gg/	4b-\	.	4e-\	-o-	1B-	-o-	4g\	-o-	4ee-\	-o-	4e-\	4g\	.	4ee-\	.	1ryy
!	!	!	!	!	!	!	!LO:TX:a:t=P:problem=w źródle to albo 8gg [przednutka]	!	!	!	!	!	!	!	!	!	!	!	!	!	!	!	!
.	.	8qg/	.	.	.	.	8qqbb-/	.	.	.	.	.	.	.	.	.	.	.	.	.	.	.	.
4B-\	.	8f\L	.	4b-/	4f\	.	8aa-\L	4ryy	.	4B-\	.	.	.	8a-\L	.	8ff\L	.	4B-/	4f\	.	8ff\L	.	.
.	.	16e-\L	.	.	.	.	16gg\L	.	.	.	.	.	.	8f\J	.	8dd\J	.	.	.	.	8dd\J	.	.
.	.	16d\JJ	.	.	.	.	16ff\JJ	.	.	.	.	.	.	.	.	.	.	.	.	.	.	.	.
4e-\	.	4e-\	.	4b-/	4g\	.	4gg/	4b-\	.	4e-\	.	.	.	4g\	.	4ee-\	.	4e-\	4g\	.	4ee-\	.	.
!	!	!	!	!	!	!	!LO:TX:a:t=P:problem=w źródle to albo 8gg [przednutka]	!	!	!	!	!	!	!	!	!	!	!	!	!	!	!	!
.	.	8qg/	.	.	.	.	8qqbb-/	.	.	.	.	.	.	.	.	.	.	.	.	.	.	.	.
4B-\	.	8f\L	.	4b-/	4f\	.	8aa-\L	4ryy	.	4B-\	.	.	.	8a-\L	.	8ff\L	.	4B-/	4f\	.	8ff\L	.	.
.	.	16e-\L	.	.	.	.	16gg\L	.	.	.	.	.	.	8f\J	.	8dd\J	.	.	.	.	8dd\J	.	.
.	.	16d\JJ	.	.	.	.	16ff\JJ	.	.	.	.	.	.	.	.	.	.	.	.	.	.	.	.
*	*	*	*	*v	*v	*	*	*	*	*	*	*	*	*	*	*	*	*	*	*	*	*	*
*	*	*	*	*	*	*v	*v	*	*	*	*	*	*	*	*	*	*	*	*	*	*	*
=58	=58	=58	=58	=58	=58	=58	=58	=58	=58	=58	=58	=58	=58	=58	=58	=58	=58	=58	=58	=58	=58
*tremolo	*	*tremolo	*	*	*	*	*	*	*	*	*	*	*	*	*	*	*	*	*	*	*
8E-\L	.	8e-\L	.	8g/L	.	8gg\L	.	4E-\	-nem	4B-\	-nem	4g\	-nem	4ee-\	-nem	4e-\	4g\	.	2ee-\	.	1ryy
8E-\	.	8e-\	.	8g/	.	8ee-\	.	.	.	.	.	.	.	.	.	.	.	.	.	.	.
8E-\	.	8e-\	.	8g/	.	8ee-\	.	4r	.	4r	.	4r	.	4r	.	4r	4r	.	.	.	.
8E-\J	.	8e-\J	.	8g/J	.	8ee-\J	.	.	.	.	.	.	.	.	.	.	.	.	.	.	.
*	*	*	*	*tremolo	*	*	*	*	*	*	*	*	*	*	*	*	*	*	*	*	*
8G\L	.	8g\L	.	8b-\L	.	(8dd\L	.	4G\	mor-	4B-\	mor-	4g\	mor-	4ee-\	mor-	2r	2r	.	2b-\	.	.
8G\	.	8g\	.	8b-\	.	8ee-\)	.	.	.	.	.	.	.	.	.	.	.	.	.	.	.
8G\	.	8g\	.	8b-\	.	8ee-\	.	4G\	-tu-	4B-\	-tu-	4g\	-tu-	4ee-\	-tu-	.	.	.	.	.	.
8G\J	.	8g\J	.	8b-\J	.	8ee-\J	.	.	.	.	.	.	.	.	.	.	.	.	.	.	.
*	*	*	*	*Xtremolo	*	*	*	*	*	*	*	*	*	*	*	*	*	*	*	*	*
=59	=59	=59	=59	=59	=59	=59	=59	=59	=59	=59	=59	=59	=59	=59	=59	=59	=59	=59	=59	=59	=59
8B-\L	.	8f\L	.	16b-LL 16d/	.	16ff\LL	.	1D	-o-	1B-	-o-	1a-	-o-	1ff	-o-	1B-	1f	.	1b-	.	1ryy
.	.	.	.	16b- 16d/	.	16aa-X\	.	.	.	.	.	.	.	.	.	.	.	.	.	.	.
8B-\	.	8f\	.	16b- 16d/	.	16gg\	.	.	.	.	.	.	.	.	.	.	.	.	.	.	.
.	.	.	.	16b-JJ 16d/	.	16aa-\JJ	.	.	.	.	.	.	.	.	.	.	.	.	.	.	.
8B-\	.	8f\	.	16b-LL 16d/	.	16bb-\LL	.	.	.	.	.	.	.	.	.	.	.	.	.	.	.
.	.	.	.	16b- 16d/	.	16aa-\	.	.	.	.	.	.	.	.	.	.	.	.	.	.	.
8B-\J	.	8f\J	.	16b- 16d/	.	16gg\	.	.	.	.	.	.	.	.	.	.	.	.	.	.	.
.	.	.	.	16b-JJ 16d/	.	16aa-\JJ	.	.	.	.	.	.	.	.	.	.	.	.	.	.	.
*	*	*Xtremolo	*	*	*	*	*	*	*	*	*	*	*	*	*	*	*	*	*	*	*
*	*	*	*	*tremolo	*	*	*	*	*	*	*	*	*	*	*	*	*	*	*	*	*
8D\L	.	2f\	.	16b-LL 16f/	.	16b-\LL	.	.	.	.	.	.	.	.	.	.	.	.	.	.	.
.	.	.	.	16b- 16f/	.	16dd\	.	.	.	.	.	.	.	.	.	.	.	.	.	.	.
8D\	.	.	.	16b- 16f/	.	16ff\	.	.	.	.	.	.	.	.	.	.	.	.	.	.	.
.	.	.	.	16b- 16f/	.	16aa-\JJ	.	.	.	.	.	.	.	.	.	.	.	.	.	.	.
8D\	.	.	.	16b- 16f/	.	16bb-\LL	.	.	.	.	.	.	.	.	.	.	.	.	.	.	.
.	.	.	.	16b- 16f/	.	16aa-\	.	.	.	.	.	.	.	.	.	.	.	.	.	.	.
8D\J	.	.	.	16b- 16f/	.	16gg\	.	.	.	.	.	.	.	.	.	.	.	.	.	.	.
.	.	.	.	16b-JJ 16f/	.	16aa-\JJ	.	.	.	.	.	.	.	.	.	.	.	.	.	.	.
*Xtremolo	*	*	*	*	*	*	*	*	*	*	*	*	*	*	*	*	*	*	*	*	*
=60	=60	=60	=60	=60	=60	=60	=60	=60	=60	=60	=60	=60	=60	=60	=60	=60	=60	=60	=60	=60	=60
*	*	*	*	*^	*	*	*	*	*	*	*	*	*	*	*	*	*	*	*	*	*
*	*	*	*	*tremolo	*tremolo	*	*	*	*	*	*	*	*	*	*	*	*	*	*	*	*	*
4E-\	.	8e-\L	.	16b-/LL	16f\LL	.	16gg\LL	.	4E-\	-rum	4B-\	-rum	4g\	-rum	4ee-\	-rum	4e-\	4g\	.	1b-	.	1ryy
.	.	.	.	16b-/	16f\	.	16b-\	.	.	.	.	.	.	.	.	.	.	.	.	.	.	.
.	.	8e-\	.	16b-/	16f\	.	16gg\	.	.	.	.	.	.	.	.	.	.	.	.	.	.	.
.	.	.	.	16b-/	16f\	.	16b-\JJ	.	.	.	.	.	.	.	.	.	.	.	.	.	.	.
*	*	*	*	*	*	*	*	*	*	*	*	*	*	*	*	*ij	*	*	*	*	*	*
4G\	.	8d\	.	16b-/	16f\	.	16ee-\LL	.	(4G\	mor-	4r	.	(4e-\	mor-	(4ee-\	mor-	4G/	4e-\	.	.	.	.
.	.	.	.	16b-/	16f\	.	16b-\	.	.	.	.	.	.	.	.	.	.	.	.	.	.	.
.	.	8e-\J	.	16b-/	16f\	.	16ee-\	.	.	.	.	.	.	.	.	.	.	.	.	.	.	.
.	.	.	.	16b-/JJ	16f\JJ	.	16b-\JJ	.	.	.	.	.	.	.	.	.	.	.	.	.	.	.
*	*	*	*	*	*	*	*	*	*	*	*	*ij	*	*	*	*	*	*	*	*	*	*
4F\	.	8d\L	.	16b-/LL	16f\LL	.	16ff\LL	.	4F\)	.	4B-\	mor-	4f\)	.	4dd\)	.	4B-/	4f\	.	.	.	.
.	.	.	.	16b-/	16f\	.	16b-\	.	.	.	.	.	.	.	.	.	.	.	.	.	.	.
.	.	8d\	.	16b-/	16f\	.	16ff\	.	.	.	.	.	.	.	.	.	.	.	.	.	.	.
.	.	.	.	16b-/JJ	16f\JJ	.	16b-\JJ	.	.	.	.	.	.	.	.	.	.	.	.	.	.	.
4E-\	.	8e-\	.	16b-/LL	16g\LL	.	16gg\LL	.	4E-\	-tu-	4B-\	-tu-	4g\	-tu-	4ee-\	-tu-	4e-\	4g\	.	.	.	.
.	.	.	.	16b-/	16g\	.	16b-\	.	.	.	.	.	.	.	.	.	.	.	.	.	.	.
.	.	8e-\J	.	16b-/	16g\	.	16gg\	.	.	.	.	.	.	.	.	.	.	.	.	.	.	.
.	.	.	.	16b-/JJ	16g\JJ	.	16b-\JJ	.	.	.	.	.	.	.	.	.	.	.	.	.	.	.
*	*	*	*	*Xtremolo	*Xtremolo	*	*	*	*	*	*	*	*	*	*	*	*	*	*	*	*	*
*	*	*	*	*v	*v	*	*	*	*	*	*	*	*	*	*	*	*	*	*	*	*	*
=61	=61	=61	=61	=61	=61	=61	=61	=61	=61	=61	=61	=61	=61	=61	=61	=61	=61	=61	=61	=61	=61
*tremolo	*	*tremolo	*	*tremolo	*	*	*	*	*	*	*	*	*	*	*	*	*	*	*	*	*
8D\L	.	8f\L	.	16d/LL	.	16bb-\LL	.	1D	-o-	1B-	-o-	1a-	-o-	1ff	-o-	1B-	1f	.	1b-	.	1ryy
.	.	.	.	16b-/	.	16aa-\	.	.	.	.	.	.	.	.	.	.	.	.	.	.	.
8D\	.	8f\	.	16d/	.	16gg\	.	.	.	.	.	.	.	.	.	.	.	.	.	.	.
.	.	.	.	16b-/	.	16aa-\JJ	.	.	.	.	.	.	.	.	.	.	.	.	.	.	.
8D\	.	8f\	.	16d/	.	16bb-\LL	.	.	.	.	.	.	.	.	.	.	.	.	.	.	.
.	.	.	.	16b-/	.	16aa-\	.	.	.	.	.	.	.	.	.	.	.	.	.	.	.
8D\J	.	8f\J	.	16d/	.	16gg\	.	.	.	.	.	.	.	.	.	.	.	.	.	.	.
.	.	.	.	16b-/JJ	.	16aa-\JJ	.	.	.	.	.	.	.	.	.	.	.	.	.	.	.
8BB-/L	.	8f\L	.	16f/LL	.	16b-\LL	.	.	.	.	.	.	.	.	.	.	.	.	.	.	.
.	.	.	.	16b-/	.	16dd\	.	.	.	.	.	.	.	.	.	.	.	.	.	.	.
8BB-/	.	8f\	.	16f/	.	16ff\	.	.	.	.	.	.	.	.	.	.	.	.	.	.	.
.	.	.	.	16b-/	.	16aa-\JJ	.	.	.	.	.	.	.	.	.	.	.	.	.	.	.
8BB-/	.	8f\	.	16f/	.	16bb-\LL	.	.	.	.	.	.	.	.	.	.	.	.	.	.	.
.	.	.	.	16b-/	.	16aa-\	.	.	.	.	.	.	.	.	.	.	.	.	.	.	.
8BB-/J	.	8f\J	.	16f/	.	16gg\	.	.	.	.	.	.	.	.	.	.	.	.	.	.	.
.	.	.	.	16b-/JJ	.	16aa-\JJ	.	.	.	.	.	.	.	.	.	.	.	.	.	.	.
*Xtremolo	*	*Xtremolo	*	*	*	*	*	*	*	*	*	*	*	*	*	*	*	*	*	*	*
=62	=62	=62	=62	=62	=62	=62	=62	=62	=62	=62	=62	=62	=62	=62	=62	=62	=62	=62	=62	=62	=62
*	*	*	*	*	*	*tremolo	*	*	*	*	*	*	*	*	*	*	*	*	*	*	*
!	!	!	!	!	!	!	!	!	!	!LO:TX:t=P:global:problem=znak oddechu na 1 linii	!	!	!	!	!	!LO:TX:t=P:problem=fragment nieczytelny	!	!	!	!	!
4E-\	.	4e-\	.	8g|</L	.	16gg\LL	.	4E-\	-rum	4B-,<\	-rum	8g\L	-rum	4ee-\	-rum	2ryy	4g\	.	4b-\	.	1ryy
.	.	.	.	.	.	16gg\	.	.	.	.	.	.	.	.	.	.	.	.	.	.	.
.	.	.	.	8b-|</	.	16gg\	.	.	.	.	.	8b-\	.	.	.	.	.	.	.	.	.
.	.	.	.	.	.	16gg\	.	.	.	.	.	.	.	.	.	.	.	.	.	.	.
*	*	*	*	*	*	*	*	*	*	*	*Xij	*	*	*	*Xij	*	*	*	*	*	*
8r	.	8r	.	8cc|</	.	16gg\	.	8r	.	4e-\	Et	8cc\	.	4gg\	et	.	4r	.	4cc\	.	.
.	.	.	.	.	.	16gg\	.	.	.	.	.	.	.	.	.	.	.	.	.	.	.
!LO:N:vis=4	!	!	!	!	!	!	!	!	!	!	!	!	!	!	!	!	!	!	!	!	!
16e-\	.	8e-\	.	8g|</J	.	16gg\	.	8E-\	et	.	.	8g\J	.	.	.	.	.	.	.	.	.
!LO:N:vis=8	!	!	!	!	!	!	!	!	!	!	!	!	!	!	!	!	!	!	!	!	!
16e-\	.	.	.	.	.	16gg\JJ	.	.	.	.	.	.	.	.	.	.	.	.	.	.	.
8f\L	.	8f\L	.	8a-/L	.	16gg\LL	.	8F\L	Vi-	(4c\	vi-	8a-\L	et	(4gg\	vi-	2r	2r	.	4a-\	.	.
.	.	.	.	.	.	16gg\	.	.	.	.	.	.	.	.	.	.	.	.	.	.	.
8d\	.	8d\	.	8f/J	.	16gg\	.	8D\J	.	.	.	8f\J	.	.	.	.	.	.	.	.	.
.	.	.	.	.	.	16gg\JJ	.	.	.	.	.	.	.	.	.	.	.	.	.	.	.
8B-\	.	8B-\	.	4b-/	.	16ff\LL	.	8BB-/L	.	4d\)	.	4b-\	vi-	4ff\)	.	.	.	.	4b-\	.	.
.	.	.	.	.	.	16ff\	.	.	.	.	.	.	.	.	.	.	.	.	.	.	.
8d\J	.	8d\J	.	.	.	16ff\	.	8D/J	.	.	.	.	.	.	.	.	.	.	.	.	.
.	.	.	.	.	.	16ff\JJ	.	.	.	.	.	.	.	.	.	.	.	.	.	.	.
=63	=63	=63	=63	=63	=63	=63	=63	=63	=63	=63	=63	=63	=63	=63	=63	=63	=63	=63	=63	=63	=63
!	!	!	!	!	!	!	!	!	!	!	!	!	!	!	!	!	!LO:TX:a:t=3	!	!	!	!
8e-\L	.	8e-\L	.	8g/L	.	16ff\LL	.	8E-\L	-tam	4B-\	-tam	8g\L	-tam	4ff\	-tam	1r	1r	.	4g/	.	1ryy
.	.	.	.	.	.	16ff\	.	.	.	.	.	.	.	.	.	.	.	.	.	.	.
8c\	.	8c\	.	8e-/J	.	16ff\	.	8c\J	.	.	.	8e-\J	.	.	.	.	.	.	.	.	.
.	.	.	.	.	.	16ff\JJ	.	.	.	.	.	.	.	.	.	.	.	.	.	.	.
8A-\	.	8A-\	.	4a-/	.	16ee-\LL	.	8A-\L	ven-	4c\	ven-	4a-\	ven-	4ee-\	ven-	.	.	.	4a-/	.	.
.	.	.	.	.	.	16ee-\	.	.	.	.	.	.	.	.	.	.	.	.	.	.	.
8c\J	.	8c\J	.	.	.	16ee-\	.	8c\J	.	.	.	.	.	.	.	.	.	.	.	.	.
.	.	.	.	.	.	16ee-\JJ	.	.	.	.	.	.	.	.	.	.	.	.	.	.	.
8d\L	.	8d\L	.	8f/L	.	16ee-\LL	.	8d\L	-tu-	4A-\	-tu-	8f\L	-tu-	4ee-\	-tu-	.	.	.	4f/	.	.
.	.	.	.	.	.	16ee-\	.	.	.	.	.	.	.	.	.	.	.	.	.	.	.
8B-\	.	8B-\	.	8d/J	.	16ee-\	.	8B-\J	.	.	.	8d\J	.	.	.	.	.	.	.	.	.
.	.	.	.	.	.	16ee-\JJ	.	.	.	.	.	.	.	.	.	.	.	.	.	.	.
8G\	.	8G\	.	4g/	.	16dd\LL	.	8G\L	-ri	4B-\	-ri	4g\	-ri	4dd\	-ri	.	.	.	4g/	.	.
.	.	.	.	.	.	16dd\	.	.	.	.	.	.	.	.	.	.	.	.	.	.	.
8B-\J	.	8B-\J	.	.	.	16dd\	.	8B-\J	.	.	.	.	.	.	.	.	.	.	.	.	.
.	.	.	.	.	.	16dd\JJ	.	.	.	.	.	.	.	.	.	.	.	.	.	.	.
=64	=64	=64	=64	=64	=64	=64	=64	=64	=64	=64	=64	=64	=64	=64	=64	=64	=64	=64	=64	=64	=64
8c\L	.	8c/L	.	8e-/L	.	16dd\LL	.	8c\L	Sae-	4G/	Sae-	8e-\L	Sae-	4dd\	Sae-	1r	1r	.	4e-/	.	1ryy
.	.	.	.	.	.	16dd\	.	.	.	.	.	.	.	.	.	.	.	.	.	.	.
8A-\	.	8A-/	.	8c/J	.	16dd\	.	8A-\J	.	.	.	8c\J	.	.	.	.	.	.	.	.	.
.	.	.	.	.	.	16dd\JJ	.	.	.	.	.	.	.	.	.	.	.	.	.	.	.
8F\	.	8F/	.	4f/	.	16cc\LL	.	8F\	-cu-	8A-/	-cu-	8f\	-cu-	8cc\	-cu-	.	.	.	4f/	.	.
.	.	.	.	.	.	16cc\	.	.	.	.	.	.	.	.	.	.	.	.	.	.	.
8A-\J	.	8A-/J	.	.	.	16cc\	.	8A-\	-li	8A-/	-li	8f\	-li	8cc\	-li	.	.	.	.	.	.
.	.	.	.	.	.	16cc\JJ	.	.	.	.	.	.	.	.	.	.	.	.	.	.	.
8B-\L	.	8B-/L	.	8d/L	.	16cc\LL	.	8B-\L	a-	(4F/	a-	8d\L	a-	(4cc\	a-	.	.	.	4d/	.	.
.	.	.	.	.	.	16cc\	.	.	.	.	.	.	.	.	.	.	.	.	.	.	.
8G\	.	8G/	.	8B-/J	.	16cc\	.	8G\J	.	.	.	8B-\J	.	.	.	.	.	.	.	.	.
.	.	.	.	.	.	16cc\JJ	.	.	.	.	.	.	.	.	.	.	.	.	.	.	.
8E-\	.	8E-/	.	4e-/	.	16b-\LL	.	8E-\L	-men	4G/)	.	4e-\	-men	4b-\)	.	.	.	.	4e-/	.	.
.	.	.	.	.	.	16b-\	.	.	.	.	.	.	.	.	.	.	.	.	.	.	.
8G\J	.	8G/J	.	.	.	16b-\	.	8G\J	.	.	.	.	.	.	.	.	.	.	.	.	.
.	.	.	.	.	.	16b-\JJ	.	.	.	.	.	.	.	.	.	.	.	.	.	.	.
=65	=65	=65	=65	=65	=65	=65	=65	=65	=65	=65	=65	=65	=65	=65	=65	=65	=65	=65	=65	=65	=65
*	*	*	*	*tremolo	*	*	*	*	*	*	*	*	*	*	*	*	*	*	*	*	*
8A-\L	.	8A-/L	.	16e-/LL	.	16cc\LL	.	4A-\	a-	4A-\	-men	4e-\	a-	4cc\	-men	1r	1r	.	4f/	.	1ryy
.	.	.	.	16e-/	.	16cc\	.	.	.	.	.	.	.	.	.	.	.	.	.	.	.
8A-\	.	8A-/	.	16e-/	.	16cc\	.	.	.	.	.	.	.	.	.	.	.	.	.	.	.
.	.	.	.	16e-/JJ	.	16cc\JJ	.	.	.	.	.	.	.	.	.	.	.	.	.	.	.
8B-\	.	8B-/	.	16a-/LL	.	16dd\LL	.	4B-\	.	(4d\	a-	4a-\	.	(4dd\	a-	.	.	.	4a-/	.	.
.	.	.	.	16a-/	.	16dd\	.	.	.	.	.	.	.	.	.	.	.	.	.	.	.
8B-\J	.	8B-/J	.	16a-/	.	16dd\	.	.	.	.	.	.	.	.	.	.	.	.	.	.	.
.	.	.	.	16a-/JJ	.	16dd\JJ	.	.	.	.	.	.	.	.	.	.	.	.	.	.	.
!LO:SIC:v:o=8B-\L	!	!	!	!	!	!	!	!	!	!	!	!	!	!	!	!	!	!	!	!	!
8c	.	8c\L	.	16g/LL	.	16ee-\LL	.	4c\	.	4e-\	.	4g\	.	4ee-\)	.	.	.	.	4g/	.	.
.	.	.	.	16g/	.	16ee-\	.	.	.	.	.	.	.	.	.	.	.	.	.	.	.
!LO:SIC:v:o=8B-\	!	!	!	!	!	!	!	!	!	!	!	!	!	!	!	!	!	!	!	!	!
8c	.	8c\	.	16g/	.	16ee-\	.	.	.	.	.	.	.	.	.	.	.	.	.	.	.
.	.	.	.	16g/JJ	.	16ee-\JJ	.	.	.	.	.	.	.	.	.	.	.	.	.	.	.
!	!	!	!	!	!	!	!	!	!	!	!	!	!	!	!	!	!	!	!LO:TX:b:t=C	!	!
8d\	.	8d\	.	16b-/LL	.	16ff\LL	.	4d\	.	4B-\)	.	4f\	.	4ff\	.	.	.	.	4b-/	.	.
.	.	.	.	16b-/	.	16ff\	.	.	.	.	.	.	.	.	.	.	.	.	.	.	.
8d\J	.	8d\J	.	16b-/	.	16ff\	.	.	.	.	.	.	.	.	.	.	.	.	.	.	.
.	.	.	.	16b-/JJ	.	16ff\JJ	.	.	.	.	.	.	.	.	.	.	.	.	.	.	.
*	*	*	*	*Xtremolo	*	*	*	*	*	*	*	*	*	*	*	*	*	*	*	*	*
=66	=66	=66	=66	=66	=66	=66	=66	=66	=66	=66	=66	=66	=66	=66	=66	=66	=66	=66	=66	=66	=66
8e-\L	.	8e-\L	.	16b-/LL	.	16gg\LL	.	4e-\	-men	4B-\	-men	4e-\	-men	4gg\	-men	4e-\	4g\	.	4ee-\	.	1ryy
.	.	.	.	16g/	.	16gg\	.	.	.	.	.	.	.	.	.	.	.	.	.	.	.
8e-\	.	8e-\J	.	16g/	.	16gg\	.	.	.	.	.	.	.	.	.	.	.	.	.	.	.
.	.	.	.	16g/JJ	.	16gg\JJ	.	.	.	.	.	.	.	.	.	.	.	.	.	.	.
*	*	*	*	*tremolo	*	*	*	*	*	*	*	*	*	*	*	*	*	*	*	*	*
*	*	*	*	*	*	*	*	*	*	*	*ij	*	*	*	*	*	*	*	*	*	*
8c\	.	8c\L	.	16g/LL	.	16ee-\LL	.	(4c\	a-	(2c\	a-	(4g\	a-	2ee-\	a-	4e-\	4g\	.	4g/	.	.
.	.	.	.	16g/	.	16ee-\	.	.	.	.	.	.	.	.	.	.	.	.	.	.	.
8c\J	.	8c\J	.	16g/	.	16ee-\	.	.	.	.	.	.	.	.	.	.	.	.	.	.	.
.	.	.	.	16g/JJ	.	16ee-\JJ	.	.	.	.	.	.	.	.	.	.	.	.	.	.	.
8A-\L	.	8c\L	.	16f/LL	.	16ee-\LL	.	4A-\)	.	.	.	2f\)	.	.	.	4f\	4f\	.	2f/	.	.
.	.	.	.	16f/	.	16ee-\	.	.	.	.	.	.	.	.	.	.	.	.	.	.	.
8A-\	.	8c\	.	16f/	.	16ee-\	.	.	.	.	.	.	.	.	.	.	.	.	.	.	.
.	.	.	.	16f/	.	16ee-\JJ	.	.	.	.	.	.	.	.	.	.	.	.	.	.	.
8B-\	.	8B-\	.	16f/	.	16dd\LL	.	4B-\	.	4B-\)	.	.	.	4dd\	.	4B-/	4f\	.	.	.	.
.	.	.	.	16f/	.	16dd\	.	.	.	.	.	.	.	.	.	.	.	.	.	.	.
8B-\J	.	8B-\J	.	16f/	.	16dd\	.	.	.	.	.	.	.	.	.	.	.	.	.	.	.
.	.	.	.	16f/JJ	.	16dd\JJ	.	.	.	.	.	.	.	.	.	.	.	.	.	.	.
*	*	*	*	*Xtremolo	*	*Xtremolo	*	*	*	*	*	*	*	*	*	*	*	*	*	*	*
=67	=67	=67	=67	=67	=67	=67	=67	=67	=67	=67	=67	=67	=67	=67	=67	=67	=67	=67	=67	=67	=67
*	*	*	*	*	*	*^	*	*	*	*	*	*	*	*	*	*	*	*	*	*	*
4e-\	.	4e-\	f	4g 4B-/	.	4ee-/	4g\	.	4e-,<\	-men	4B-,<\	-men	4g\	-men	4ee-\	-men	4e-\	4g\	.	4g/	.	1ryy
*	*	*	*	*	*	*	*	*	*	*ij	*	*	*	*	*	*ij	*	*	*	*	*	*
4B-\	.	4B-/	.	4f 4B-/	.	4dd/	4f\	.	4B-\	a-	4B-\	a-	4f\	a-	4dd\	a-	4B-/	4f\	.	4f/	.	.
4E-\	.	4e-\	.	4g 4B-/	.	4ee-/	4g\	.	4E-\	-men	4B-\	-men	4g\	-men.	4ee-\	-men	4e-\	4g\	.	4g/	.	.
*	*	*	*	*	*	*	*	*	*	*Xij	*	*Xij	*	*	*	*Xij	*	*	*	*	*	*
4r	.	4r	.	4r	.	4r	4ryy	.	4r	.	4r	.	4r	.	4r	.	4r	4r	.	4r	.	.
*	*	*	*	*	*	*v	*v	*	*	*	*	*	*	*	*	*	*	*	*	*	*	*
==	==	==	==	==	==	==	==	==	==	==	==	==	==	==	==	==	==	==	==	==	==
*-	*-	*-	*-	*-	*-	*-	*-	*-	*-	*-	*-	*-	*-	*-	*-	*-	*-	*-	*-	*-	*-
!!!system-decoration: [(s1,s2)][(s3,s4)][(s5,s6,s7,s8)][(s9,s10,s11)][(s12)]
!!!RDF**kern: > = above
!!!RDF**kern: < = below
!!!RDF**dynam: > = "Dim:", fontstyle= "bold-italic"
!!!RDF**dynam: < = "Cres:", fontstyle= "bold-italic"
!!!RDF**kern: | = vertical stroke
!!!RDF**kern: N = linked
!!!RDF**kern: i = editorial accidental
!!!RDF**kern: l = terminal long
!!!ENC: Andrzej Kubiczek
!!!END: 2020-09-30
!!!EED: Wojciech Jakubiak-Danek
!!!EEV: 2022-02-02
